!!!!SEGMENT: 012-1c-BH-001.krn
!!!COM: Chopin, Fryderyk
!!!OTL: Variations
!!!OPS: Op. 12
!!!PTL: Variations | brillantes | pour le pianoforte
!!!PPR: Breitkopf & Härtel
!!!PPP: Leipzig
!!!AGN: Variations
!!!NIFC-rismID: 300605013
!!!NIFC-shelfmark: PL-Wbfc 426/n
!!!OMD: All.|o maestoso
!!!OMD: Metr: [quarter]=118.
!!!system-decoration: {(s1,s2)}
**kern	**fing	**kern	**fing	**dynam
*part1	*part1	*part1	*part1	*part1
*staff2	*	*staff1	*	*
*clefF4	*	*clefG2	*	*
*k[b-e-]	*	*k[b-e-]	*	*
*B-:	*	*B-:	*	*
*M4/4	*	*M4/4	*	*
*met(c)	*	*met(c)	*	*
=1	=1	=1	=1	=1
*ped	*	*	*	*
!	!	!LO:TX:t=risoluto	!	!
4BB- 4BBB-	.	4B-	.	.
*clefG2	*	*8va	*	*
4dd 4b- 4f 4d	.	N(>4bbb- 4bb-	.	sf
*Xped	*	*	*	*
2r	.	16gggLL	2	.
.	.	16fff	1	.
.	.	16eee-	3	.
.	.	16dddJJ	2	.
*	*	*X8va	*	*
!	!	!LO:TX:a:t=loco	!	!
.	.	16cccLL	1	.
.	.	16bb-	4	.
.	.	16gg	2	.
.	.	16ffJJ	1	.
=2	=2	=2	=2	=2
2rb	.	16ee-LL	.	.
.	.	16dd	.	.
.	.	16cc	1	.
.	.	16b-JJ	4	.
.	.	16gLL	.	.
.	.	16f	.	.
.	.	16e-	.	.
.	.	16dJJ	.	.
*clefF4	*	*	*	*
!LO:TX:a:t=P:w pierwodruku błędnie nie ma zmiany klucza:problem	!	!	!	!
4rGG	.	16c<L	1	.
.	.	16B-<	4	.
.	.	16G<	.	.
.	.	16F<J	.	.
8rGG	.	16E-<L	.	.
.	.	16D<	.	.
16rFF	.	16C<J	.	.
16BB-\N)	.	16r	.	.
=3	=3	=3	=3	=3
!	!	!LO:TX:t=con forza.	!	!
4.E- 4.EE-	.	4.g 4.e- 4.B-	.	.
8C 8CC	.	8a 8e- 8A	.	.
4.D 4.DD	.	4.f 4.d 4.A	.	.
8GG 8GGG	.	8b- 8f 8d	.	.
!!LO:LB:g=original
=4	=4	=4	=4	=4
*	*	*	*	*^
8CL 8CC	.	8ccL 8b- 8en	.	<	.
16r	.	16r	.	.	.
16Fk (<16FF	.	16ddk 16a (<16e-X	.	.	.
8G 8GG)	.	8b- 8d)	.	.	.
16r	.	16r	.	.	.
!	!	!	!	!	!LO:HP:t=cresc
16DJk (<16DD	.	16ffJk 16b- (<16f	.	.	<
8E-L 8EE-)	.	8gg/L 8ee-/ 8b-/ 8g/)	.	.	.
16r	.	16r	.	.	.
16Ck (<16CC	.	16aak 16ee- [<16a	.	.	.
8D 8DD)	.	8ff 8dd 8a]	.	[	.
16r	.	16r	.	.	.
16GGJk 16GGG	.	16bb-Jk 16gg 16dd	.	.	.
*	*	*	*	*v	*v
=5	=5	=5	=5	=5
4C'< 4CC	.	4ccc'> 4bb- 4een	.	.
4FF'< 4FFF	.	4fff'> 4aa 4ff	.	.
4r	.	4r	.	.
!	!	!LO:TX:a:t=P:note-head-side tuplet number:problem	!	!
!	!	!LO:TX:a:t=P:tuplet bez ramki:problem	!	!
4d-X^< 4B- [>4F	.	24r	.	p
.	.	(<24d#XLL	.	.
.	.	24en	.	.
.	.	24a	.	.
.	.	24g	.	.
.	.	24fJJ)	.	.
=6	=6	=6	=6	=6
4c 4A 4F]	.	4f	.	.
4r	.	4r	.	.
2r	.	8r	.	.
!	!	!LO:TX:t=dol	!	!
.	.	(>8ffL	.	.
.	.	8gg	.	.
.	.	8ddJ)	.	.
=7	=7	=7	=7	=7
*^	*	*	*	*
*ped	*	*	*	*	*
8ryy	(>8GGL'>	.	4.ff^<	.	.
!LO:N:vis=2	!LO:N:vis=2	!	!	!	!
8G	8G	.	.	.	.
!LO:N:vis=4.	!LO:N:vis=4.	!	!	!	!
8B-	8B-	.	.	.	.
4e-	8e-J	.	(>8b-	.	.
.	8g)	.	16ee-LL	.	.
.	.	.	16bb-	4	.
8rGyy	8r	.	16eee-	5	.
.	.	.	16dddJJ	5	.
4rAyy	4r	.	16cccLL	.	.
.	.	.	16bb-	.	.
*Xped	*	*	*	*	*
.	.	.	16aa	.	.
!	!	!	!LO:TX:a:t=P:brak początku ligatury:problem	!	!
.	.	.	[>16ggJJ)	.	.
!!LO:LB:g=original
=8	=8	=8	=8	=8	=8
*ped	*	*	*	*	*
8rAyy	8FF\L'>	.	[>4gg]	.	>
!LO:N:vis=2	!LO:N:vis=2	!	!	!	!
(>/8F	8F	.	.	.	.
!LO:N:vis=4.	!LO:N:vis=4.	!	!	!	!
8B-	8B-	.	(>16ggLL]	.	]
.	.	.	16ff	.	.
4d	8dJ	.	16b-	.	.
.	.	.	16ccJJ)	.	.
.	8f\)	.	8dd'>	.	.
8rDDyy	8r	.	8r	.	.
*Xped	*	*	*	*	*
4rDDyy	4r	.	(>8.bb-^<L	.	.
.	.	.	16dd-XJk	.	.
=9	=9	=9	=9	=9	=9
!LO:N:vis=2	!	!	!	!	!
8E-\L	2E-	.	4cc)	.	.
8g-X 8B-	.	.	.	.	.
8g- 8B-	.	.	(>8.ccL	.	.
8g-J 8B-	.	.	.	.	.
.	.	.	16ccJk	.	.
!LO:N:vis=2	!	!	!LO:TX:a:t=P:note-head-side tuplet number:problem	!	!
8F\L	2F	.	20ccLL	.	.
.	.	.	20dd-X	.	.
.	.	.	20cc	.	.
8f 8B-	.	.	.	.	.
.	.	.	20bn	.	.
.	.	.	20ccJJ	.	.
8f 8B-	.	.	8.ee-L	.	.
8fJ 8B-	.	.	.	.	.
.	.	.	16ddnJk)	.	.
*v	*v	*	*	*	*
=10	=10	=10	=10	=10
8G-XL'>	.	[>2cc^<	.	.
8e-J 8B-	.	.	.	.
8GnL'>	.	.	.	.
!	!	!LO:TX:t=legato	!	!
8enJ 8B-	.	.	.	.
4e-X 4A	.	(>16ccLL]	.	.
.	.	16dd	.	.
.	.	16cc	.	.
.	.	16fJJ	1	.
4r	.	16ccLL	.	<
.	.	16dd	.	.
.	.	16ee-	4	.
.	.	16eenJJ	1	[
!!LO:LB:g=original
=11	=11	=11	=11	=11
*^	*	*	*	*
*ped	*	*	*	*	*
8rByy	8BB-'>L	.	16ffLL	3	.
.	.	.	16dd	.	.
4F	8F	.	16ee-	.	.
.	.	.	16ggJJ	4	.
.	8fJ 8d 8B-	.	16ffLL	1	.
.	.	.	16ddd	.	.
*Xped	*	*	*	*	*
8rD	8ryy	.	16ccc	.	.
.	.	.	16bb-JJ	.	.
*ped	*	*	*	*	*
8rAyy	8C'>\L	.	16aaLL	.	.
.	.	.	16aaa	.	.
4F/	8F	.	16ggg	.	.
.	.	.	16fffJJ	.	.
.	8fJ 8e- 8c	.	16dddLL	.	.
.	.	.	16eee-	4	.
*Xped	*	*	*	*	*
8rAyy	8r	.	16gg	1	.
.	.	.	16aaJJ	2	.
=12	=12	=12	=12	=12	=12
*ped	*	*	*	*	*
!LO:TX:t=P:błędnie wyświetlają się dwa klucze:problem	!	!	!	!	!
8D'>	8ryy	.	16cccLL	4	.
*clefG2	*	*	*	*	*
.	.	.	16bb-	1	.
*	*	*	*8va	*	*
8B-L	4B-	.	16dddd	.	.
.	.	.	16ccccJJ	.	.
8b-J 8f	.	.	16aaaLL	.	.
.	.	.	16bbb-	.	.
*Xped	*	*	*	*	*
4ryy	8rb	.	16fff	.	.
.	.	.	16fff#XJJ	3	.
*clefF4	*	*	*	*	*
*ped	*	*	*	*	*
.	8E-\'>L	.	16aaaLL	5	.
.	.	.	16ggg	.	.
4B-/	8B-	.	16fffn	.	.
.	.	.	16eee-JJ	.	.
*	*	*	*X8va	*	*
!	!	!	!LO:TX:a:t=loco	!	!
.	8gJ 8c	.	16dddLL	1	.
.	.	.	16ccc	5	.
*Xped	*	*	*	*	*
8r	8ryy	.	16gg	2	.
.	.	.	32rff	.	.
.	.	.	(>32bb-JJk)	5	.
=13	=13	=13	=13	=13	=13
!LO:N:vis=2	!	!	!	!	!
8En\L	2En	.	4.g^<)	1	.
8c 8B-	.	.	.	.	.
8c 8B-	.	.	.	.	.
8cJ 8B-	.	.	N(<(>8a	.	.
!	!	!	!LO:TX:a:t=P:note-head-side tuplet number:problem	!	!
8G\L	4ryy	.	20b-/LL	.	.
.	.	.	20cc	.	.
.	.	.	20b-	.	.
8cJ 8B-	.	.	.	.	.
.	.	.	20a	.	.
.	.	.	20b-JJN)	.	.
*ped	*	*	*	*	*
8C'>\L	4ryy	.	8.ccL)	.	.
8enJ 8B-	.	.	.	.	.
*Xped	*	*	*	*	*
.	.	.	(>16gJk	.	.
!!LO:LB:g=original
=14	=14	=14	=14	=14	=14
!	!LO:N:vis=2	!	!LO:TX:a:t=P:łuk zaczyna się od dołu:problem	!	!
[>2F	[>8FL	.	(>2b-)	.	.
.	8f 8d	.	.	.	.
.	8f 8d	.	.	.	.
.	8fJ 8d-X	.	.	.	.
2rbyy	8f 8c 8F]	.	8a)	.	.
.	8r	.	(>16eenLL	.	.
.	.	.	16ffJJ	.	>
.	4r	.	16ggLL	.	.
.	.	.	16ff	.	.
.	.	.	16cc	.	]
.	.	.	16ddJJ	.	.
*v	*v	*	*	*	*
=15	=15	=15	=15	=15
8r	.	4ee-)	.	.
(>8GL	.	.	.	.
8B-	.	(>8.ee-L	.	.
8e-J)	.	.	.	.
.	.	16ee-Jk	.	.
8r	.	16ee-LL	.	<
.	.	16dd	.	.
(>8F#XL	.	16cc#X	.	[
.	.	16ddJJ	.	.
8A	.	16bb-LL	.	>
.	.	16aa	.	.
8dJ)	.	16ff#X	.	.
.	.	16ddJJ	.	]
=16	=16	=16	=16	=16
8r	.	2dd-X)	.	.
(>8FnL	.	.	.	.
8A-X	.	.	.	.
8d-XJ)	.	.	.	.
8r	.	4.dd-^<	.	.
(>8EnL	.	.	.	.
8Gn	.	.	.	.
8cJ)	.	8cc	.	.
!!LO:PB:g=original
=17	=17	=17	=17	=17
8r	.	4cc-X)	.	.
(>8E-L	.	.	.	.
!	!	!LO:TX:t=poco riten.	!	!
8G-X	.	(>8.cc-L	.	.
8c-XJ)	.	.	.	.
.	.	16cc-Jk	.	.
!	!	!	!	!LO:HP:a
8r	.	16cc-LL	.	<
.	.	16b-	.	.
(>8DL	.	16a	.	.
.	.	16b-JJ	.	[
.	.	8qb-/	.	.
8F	.	16ggnLL	.	.
.	.	16ffk	.	.
8B-J)	.	16f	.	.
.	.	16gJJ	.	.
=18	=18	=18	=18	=18
*^	*	*	*	*
4ryy	8r	.	[>4a)	.	.
.	(>8CL\	.	.	.	.
!	!	!	!LO:TX:a:t=P:note-head-side tuplet number:problem	!	!
8ryy	8F	.	(>12aL]	.	.
.	.	.	12cc	.	.
!LO:N:vis=4.	!	!	!	!	!
8d/	8dJ)	.	.	.	.
.	.	.	12b-J)	.	.
!LO:N:vis=2	!LO:N:vis=2	!	!	!	!
(>4C	8CL	.	(>4.a^>\	.	.
.	8G	.	.	.	.
4en>\	8B-	.	.	.	.
.	8cJ	.	8g	.	.
=19	=19	=19	=19	=19	=19
!LO:TX:t=P:cross-staff slur:problem	!	!	!	!	!
!LO:N:vis=2	!LO:TX:t=P:łuki błędnie się wyświetlają; "N" w tym wypadku też nie działa poprawnie:problem	!	!	!	!
8FL)	(<2F	.	4f)	.	.
8A\	.	.	.	.	.
(>8g-X 8B-	.	.	[>4cc^>	.	.
8fJ 8A)	.	.	.	.	.
4en) 4B- 4Gn 4F)	4ryy	.	(>16ccLL]	.	.
.	.	.	16dd#X	.	<
.	.	.	16ff	.	.
.	.	.	16eenJJ	.	.
4r	4ryy	.	16ff#XLL	.	.
.	.	.	16gg	.	[ >
.	.	.	16ddd	.	.
.	.	.	16cccJJ)	.	]
!!LO:LB:g=original
=20	=20	=20	=20	=20	=20
8rdyy	(<2F^>	.	8aa'>	.	.
8fL 8A	.	.	8r	.	.
8g-X 8B-	.	.	[>4cc^>	.	.
8fJ 8A	.	.	.	.	.
4en 4B- 4Gn	4F)	.	(>16ccLL]	.	.
.	.	.	16dd#X	.	<
.	.	.	16ff	.	.
.	.	.	16eenJJ	.	.
4rD	4ryy	.	16ff#XLL	.	.
.	.	.	16gg	.	.
.	.	.	16ddd	.	[
.	.	.	16cccJJ	.	.
*v	*v	*	*	*	*
=21	=21	=21	=21	=21
*ped	*	*	*	*
8F`	.	8aa'>)	.	.
*clefG2	*	*	*	*
8aL (<8c	.	8r	.	.
8b- 8d-X	.	[>4ff^<	.	.
8aJ 8c)	.	.	.	.
4cc 4e-	.	(>16ffLL]	.	<
.	.	16gg-X	.	.
.	.	16gg#X	.	.
.	.	16aaJJ	1	.
4r	.	16bbnLL	2	.
*Xped	*	*	*	*
.	.	16ccc	.	.
.	.	16ddd	.	.
.	.	16eee-JJ)	.	[
*clefF4	*	*	*	*
=22	=22	=22	=22	=22
*ped	*	*	*	*
8F'< 8FF	.	(>16ffLL	.	>
.	.	16ggn	.	.
*clefG2	*	*	*	*
(>8a 8cL	.	16aa	.	.
.	.	16bb-JJ	4	]
!	!	!LO:TX:a:t=P:diminuendolike accent:problem	!	!
8cc 8e-	.	16bbn^<LL	1	.
.	.	16ccc	.	.
8aJ 8c	.	16ddd	.	.
.	.	16eee-JJ	.	.
!	!	!LO:TX:a:t=P:diminuendolike accent:problem	!	!
4ee-) 4f	.	16bbn^<LL)	1	.
.	.	16ccc	.	.
.	.	16ddd	.	.
.	.	16eee-JJ	.	.
!	!	!LO:TX:a:t=P:diminuendolike accent:problem	!	!
4r	.	16eeen^<LL	1	.
.	.	16fff	.	.
*Xped	*	*	*	*
.	.	16fff#X	.	.
.	.	16gggJJ)	.	.
!!LO:LB:g=original
=23	=23	=23	=23	=23
*	*	*8va	*	*
4r	.	(>16fffLL	.	.
.	.	16dddd	.	.
.	.	16cccc	.	.
.	.	16aaaJJ	.	.
16r	.	16fff)	.	.
*	*	*X8va	*	*
(>16gggLL	.	16r	.	.
16eee-	.	8r	.	.
16cccJJ	.	.	.	.
!	!	!LO:TX:a:t=loco	!	!
16aa)	.	16r	.	.
16r	.	(>16dddLL	.	.
8r	.	16bb-	.	.
.	.	16ggJJ	.	.
16r	.	16ff'>)	.	.
(>16ggLL	.	16r	.	.
16ee-	.	8r	.	.
16ccJJ	.	.	.	.
=24	=24	=24	=24	=24
16a)	.	16r	.	.
16r	.	(</16ddLL	.	.
8r	.	16b-	.	.
.	.	16gJJ	.	.
*clefF4	*	*	*	*
16r	.	16f)	.	.
(>16gLL	.	16r	.	.
16e-	.	8r	.	.
16cJJ	.	.	.	.
16A)	.	16r	.	.
16rBB	.	(>16d</LL	.	.
8rBB	.	16B-<	.	.
.	.	16G<JJ	.	.
16rAA	.	16F<)	.	.
(>16GLL	.	16r	.	.
16E-	.	8r	.	.
16CJJ))	.	.	.	.
=25	=25	=25	=25	=25
*	*	*ped	*	*
8FF\'>	.	8ryy	.	.
8.ryy	.	(<16C<LL	.	.
.	.	16E-<JJ)	.	.
.	.	16A<	.	.
16F	.	16rByy	.	.
8.ryy	.	(<16cLL	.	.
.	.	16e-JJ	.	.
.	.	16a)	.	.
!LO:TX:t=P:cross-staff slur:problem	!	!	!	!
!LO:TX:t=P:problem z łukiem między 16f> a 16aa; "N" nie działa poprawnie:problem	!	!	!	!
16f>	.	16ryy	.	.
8ryy	.	16cc/LL	.	.
.	.	16ee-JJ	.	.
16ryy	.	16aa/	.	.
(>16ff>LL	.	8ryy	.	.
16ccc>JJ)	.	.	.	.
*	*	*8va	*	*
16ryy	.	16aaa/)	.	.
*clefG2	*	*	*	*
!!LO:LB:g=original
=26	=26	=26	=26	=26
*Xped	*	*	*	*
8r	.	16eeee-LL	.	.
.	.	(>16aaa	.	.
(>16fffLL	.	16eeee-	.	.
16bbnJ	.	16ddddJJ	.	.
8bb-XJ)'>	.	16dddd-XLL)	.	.
.	.	(>16ggg	.	.
(>16eeenLL	.	16dddd-	.	.
16aaJ	.	16ccccJJ	.	.
8aa-XJ)'>	.	16bbbnLL)	.	.
.	.	(>16fff	.	.
(>16dddLL	.	16bbb	.	.
16ggJ	.	16bbb-XJJ	.	.
8ff#XJ)'>	.	16aaaLL)	.	.
.	.	(>16eee-	.	>
!LO:TX:t=P:cross-measure beam:problem	!	!	!	!
(>16cccLL	.	16aaa	.	.
16ffnJJ	.	16aaa-XJJ	.	.
=27	=27	=27	=27	=27
8een)'>	.	16gggLL)	.	.
.	.	(>16ddd-X	.	.
(>16bb-LL	.	16ggg	.	.
16ee-XJ	.	16ggg-XJJ	.	.
8ddJ)'>	.	16fffLL)	.	.
.	.	(>16bbn	.	.
(>16aa-XLL	.	16fff	.	.
16dd-XJ	.	16eeenJJ	.	.
*	*	*X8va	*	*
!	!	!LO:TX:a:t=loco	!	!
8cc'>J)	.	16eee-XLL)	.	.
.	.	(>16aa	.	.
(>16ffLL	.	16eee-	.	.
16bnJ	.	16dddnJJ	.	.
8b-X'>J)	.	16ddd-XLL)	.	.
.	.	(>16gg-	.	.
!LO:TX:t=P:cross-measure beam:problem	!	!	!	!
(>16eenLL	.	16ddd-	.	.
16anJJ	.	16cccJJ	.	.
=28	=28	=28	=28	=28
8a-X\'>)	.	16bbnLL)	.	.
.	.	(>16ff	.	.
(<16ddLL	.	16bb	.	.
16gJ	.	16bb-XJJ	.	.
8f#X'<J)	.	16aaLL)	.	.
.	.	(>16ee-)	.	.
(<16ccLL	.	16aa	.	.
16fnJ	.	16aa-XJJ	.	.
8en'<J)	.	16ggLL)	.	.
.	.	(>16dd-X	.	.
(<16b-LL	.	16gg	.	.
16e-XJ	.	16gg-XJJ	.	.
8d'<J)	.	16ffLL)	.	.
.	.	(>16bn	.	.
(<16a-XLL	.	16ff	.	.
16d-XJJ)	.	16eenJJ	.	.
*clefF4	*	*	*	*
!!LO:LB:g=original
=29	=29	=29	=29	=29
*ped	*	*	*	*
(>8cL	.	16ee-LL	.	.
.	.	16a	.	.
8FJ)	.	16dd	.	.
.	.	16ffJJ	.	.
4r	.	16ee-LL	.	.
.	.	16a	.	.
.	.	16een	.	.
.	.	16ggJJ	.	.
(>8e-L 8c	.	16ffLL	.	.
.	.	16a	.	.
8FJ)	.	16dd	.	.
.	.	16ffJJ	.	.
4r	.	16ee-XLL	.	.
.	.	16a	.	.
.	.	16een	.	.
.	.	16ggJJ	.	.
=30	=30	=30	=30	=30
.	.	16qqeen/LL	.	.
.	.	16qqff/JJ	.	.
4a 4e- 4c	.	1ffT)	.	.
4FF'<	.	.	.	.
4r	.	.	.	.
*clefG2	*	*	*	*
!	!	!LO:TX:t=poco rallen	!	!
4a'< 4e- (<4c	.	.	.	.
.	.	16qqee/LL	.	.
.	.	16qqff/JJ	.	.
=31	=31	=31	=31	=31
!	!	!LO:TX:a:t=leggierissimo	!	!
4cc'< 4a 4e-)	.	16aaaLL	.	pp
.	.	32raa	.	.
.	.	(>32gggk	.	.
.	.	16eee-)	.	.
.	.	32rff	.	.
.	.	(>32dddJJk	.	.
4r	.	16fffLL)	.	.
.	.	32rff	.	.
.	.	(>32eee-k	.	.
.	.	16ccc)	.	.
.	.	32rff	.	.
.	.	(>32gg#XJJk	.	.
2r	.	16dddLL)	.	.
.	.	32rff	.	.
.	.	(>32ccck	.	.
.	.	16aa)	.	.
.	.	32rdd	.	.
.	.	(>32ddJJk	.	.
.	.	16aaLL)	.	.
.	.	32rdd	.	.
.	.	(>32gg#k	.	.
.	.	16ee-)	.	.
.	.	32r	.	.
.	.	(>32ccJJk	.	.
*clefF4	*	*	*	*
=32	=32	=32	=32	=32
1e-;> 1c 1F	.	1a;>)	.	.
!!LO:PB:g=original
=33||	=33||	=33||	=33||	=33||
*M6/8	*	*M6/8	*	*
!	!	!LO:TX:t=dol	!	!
8r	.	8f	.	.
=34	=34	=34	=34	=34
*^	*	*	*	*
4e-	[<2.F	.	(>4g	.	pp
8c	.	.	8a	.	.
4d	.	.	4f	.	.
8F	.	.	8b-/	.	.
=35	=35	=35	=35	=35	=35
4e-	2.F_<	.	4cc	.	.
8f	.	.	8dd	.	.
4d	.	.	4b-)	.	.
8F	.	.	(>8f	.	.
=36	=36	=36	=36	=36	=36
4e-	2.F_<	.	4g	.	.
8c	.	.	8a	.	.
4d	.	.	4f	.	.
8F	.	.	8b-	.	.
=37	=37	=37	=37	=37	=37
4e-	4.F]	.	4cc 4g	.	.
8f	.	.	8dd/ 8a/	.	.
4d	4B-	.	4b-/)	.	.
8rE	8ryy	.	8r	.	.
*v	*v	*	*	*	*
=38	=38	=38	=38	=38
(>4d	.	(>4dd	.	>
8c	.	8cc	.	.
8B-L	.	8b-L	.	]
8A	.	8a	.	.
8GJ)	.	8gJ)	.	.
=39	=39	=39	=39	=39
*	*	*^	*	*
(>4e-	.	(>4cc	2.g	.	.
8d	.	8dd	.	.	.
4.c)	.	4.ee-	.	.	.
=40	=40	=40	=40	=40	=40
*^	*	*	*	*	*
4.B-	[<4.D	.	8ddL	4.g	.	.
.	.	.	8cc#X	.	.	.
.	.	.	8ddJ	.	.	.
4d	4.D]	.	4b-	[<4.d	.	.
8c	.	.	8a	.	.	.
*v	*v	*	*	*	*	*
*	*	*v	*v	*	*
!!LO:LB:g=original
=41	=41	=41	=41	=41
4.B- 4.G	.	4.g) 4.d]	.	.
=||	=||	=||	=||	=||
4.c 4.A	.	4.f^ (<4.e-	.	.
=42	=42	=42	=42	=42
8B-L 8BB-	.	8f'< 8d)	.	.
8B-'>	.	4r	.	.
8B-'>J	.	.	.	.
8B-'>L	.	8r	.	.
8B-'>	.	8fL 8d	.	<
8B-'>J	.	8gJ 8e-	.	.
=43	=43	=43	=43	=43
8BB-'>L	.	(>8fL 8d	.	.
8B-'>	.	8b- 8d	.	.
8B-'>J	.	8aJ 8c	.	[>
8B-'>L	.	4cc 4e-	.	.
8B-'>	.	.	.	]
8B-'>J	.	8b-) 8d	.	.
=44	=44	=44	=44	=44
8BB-'>L	.	4r	.	.
8B-'>	.	.	.	.
8B-'>J	.	8r	.	.
8B-'>L	.	8r	.	.
8B-'>	.	8fL 8d	.	<
8B-'>J	.	8gJ 8e-	.	.
=45	=45	=45	=45	=45
!LO:TX:a:t=P:mixed beam:problem	!	!	!	!
8BB-/L	.	(>8fL 8d	.	.
8B-\	.	8b- 8d	.	[
8B-\J	.	8aJ 8c	.	.
8B-L	.	4cc 4e-	.	>
8B-	.	.	.	.
8B-J	.	8b-) 8d	.	]
=46	=46	=46	=46	=46
*^	*	*	*	*
*clefG2	*	*	*	*	*
8r	[<2.B-	.	8r	.	.
8b-L	.	.	(>8ddL	.	.
8aJ	.	.	8ccJ	.	.
4.a-X^	.	.	8ffL	.	.
.	.	.	8cc	.	.
!	!	!	!LO:TX:t=legato	!	!
.	.	.	8ddJ	.	.
=47	=47	=47	=47	=47	=47
4g	(<2.B-]	.	8b-L	.	.
.	.	.	8ee-	.	.
8g-X	.	.	8b-J	.	.
4.f	.	.	8ddL	.	.
.	.	.	8b-	.	.
.	.	.	8ccJ	.	.
*clefF4	*	*	*	*	*
!!LO:LB:g=original
=48	=48	=48	=48	=48	=48
*	*	*	*^	*	*
!	!LO:TX:t=P:brak zakończenia ligatury:problem	!	!	!	!	!
[4.en	[<2.B-)	.	8gL	[<4.g	.	.
.	.	.	8a	.	.	.
.	.	.	8b-J	.	.	.
4e]	.	.	4cc	4g]	.	.
8e-X	.	.	8cc#X 8g	8rdyy	.	>
*	*	*	*v	*v	*	*
=49	=49	=49	=49	=49	=49
!	!	!	!	!	!LO:HP:b=2
2.d	(>8B-L]	.	2.dd 2.f	.	<
.	8A	.	.	.	.
.	8GJ	.	.	.	.
.	8FL	.	.	.	.
.	8G	.	.	.	.
.	8G#XJ)	.	.	.	[
=50	=50	=50	=50	=50	=50
*	*	*	*^	*	*
[>4.A	4.A	.	8ddL	4f	.	[
.	.	.	8a	.	.	.
.	.	.	8ddJ 8f	8rcyy	.	.
4A]	4.AA	.	8ff^<L 8a	4.rdyy	.	.
.	.	.	8een 8g	.	.	.
[>8A	.	.	8aJ 8g 8c#X	.	.	.
*v	*v	*	*	*	*	*
*	*	*v	*v	*	*
=51	=51	=51	=51	=51
8A] 8D	.	8dd) 8f (>8d	.	<
4r	.	8f'<L	.	.
.	.	8f'<J	.	.
4r	.	8f'<L	.	.
.	.	8f'<	.	.
8d	.	8f'<J)	.	[sf
=52	=52	=52	=52	=52
*^	*	*	*	*
4e-	[<2.F	.	(>4g	.	.
8c	.	.	8a	.	.
4d	.	.	4f	.	.
8F	.	.	8b-	.	.
=53	=53	=53	=53	=53	=53
4e-	2.F_<	.	4cc	.	.
8f	.	.	8dd)	.	.
4d	.	.	(>4b-	.	.
8F	.	.	8ff 8f	.	.
=54	=54	=54	=54	=54	=54
*	*	*	*^	*	*
4e-	2.F_<	.	4ff 4g	4.rdyy	.	.
8c	.	.	8ee- 8a	.	.	.
4B-	.	.	8ee-L	4.f	.	.
.	.	.	8dd	.	.	.
8d	.	.	8ccJ	.	.	.
!!LO:LB:g=original
=55	=55	=55	=55	=55	=55	=55
.	.	.	8qcc/	.	.	.
4.en	2.F_<	.	8b-L	4.g	.	.
.	.	.	8a	.	.	.
.	.	.	8b-J	.	.	.
4f	.	.	4cc 4a 4f	4.rdyy	.	.
8F	.	.	8f	.	.	.
*	*	*	*v	*v	*	*
=56	=56	=56	=56	=56	=56
4e-X	2.F_<	.	4g	.	.
8c	.	.	8a	.	.
4d	.	.	4f	.	.
8F	.	.	8b-/	.	.
=57	=57	=57	=57	=57	=57
4e-	2.F]	.	4cc	.	.
8f	.	.	8dd	.	.
4d 4B-	.	.	4b-	.	.
8B- 8D\	.	.	8ff) 8a-X^<	.	.
*v	*v	*	*	*	*
=58	=58	=58	=58	=58
!	!	!LO:TX:t=riten.	!	!
4B- 4E-	.	4ff 4g	.	.
8c 8C	.	8ee- 8cc 8g	.	.
4c 4F	.	4ee- 4a [4f	.	.
8B-	.	(>8dd 8b- 8f]	.	.
=59	=59	=59	=59	=59
*^	*	*^	*	*
8fL	4.F	.	8ddL	4.a	.	>
8e-	.	.	8cc	.	.	.
8fJ	.	.	8ddJ	.	.	.
4d	4B-	.	4b-\)	4reyy	.	]
*v	*v	*	*	*	*	*
*	*	*v	*v	*	*
=||	=||	=||	=||	=||
*clefG2	*	*	*	*
8dd'>	.	8ddd'>	.	.
=60	=60	=60	=60	=60
8b-'<L	.	8bb-'>L	.	.
8g'<	.	8gg'>	.	.
8f'<J	.	8ff'>J	.	.
*clefF4	*	*	*	*
8d'>L	.	8dd'>L	.	.
8B-'>	.	8b-'>	.	.
8G'>J	.	8g'>J	.	.
=61	=61	=61	=61	=61
8F'>	.	8f'<	.	.
8r	.	8r	.	.
(>8c 8F	.	(>8ee- 8a 8f	.	>
8d) 8B-	.	8dd) 8b- 8f\	.	]
8r	.	8r	.	.
8d 8D	.	8ddd 8dd	.	f
!!LO:LB:g=original
=62	=62	=62	=62	=62
8B-L 8BB-\	.	8bb-L 8b-\	.	.
8G 8GG	.	8gg 8g	.	.
8FJ 8FF	.	8ffJ 8f	.	.
8D/L 8DD/	.	8dd/L 8d/	.	.
8BB- 8BBB-	.	8b- 8B-	.	.
8GGJ 8GGG	.	8gJ 8G	.	.
=63	=63	=63	=63	=63
8FF 8FFF	.	8f 8F	.	.
8r	.	8r	.	.
!	!	!	!	!LO:DY:rj
(>8f 8c 8F	.	(>8ff 8ee- 8a	.	ff
4B-) 4BB-	.	4bb-) 4dd 4b-	.	.
=||	=||	=||	=||	=||
!	!	!LO:TX:a:t=[quarter].=92	!	!
8r	.	(>8f	.	.
=64	=64	=64	=64	=64
*^	*	*	*	*
4e-	[<2.F	.	16gLL	.	p<
!	!	!	!LO:TX:a:t=legato	!	!
.	.	.	16a	.	.
.	.	.	16g	.	.
.	.	.	16f	.	.
8c	.	.	16g	.	.
.	.	.	16aJJ	.	.
4d	.	.	16fLL	.	.
.	.	.	16g	.	.
.	.	.	16f	.	.
.	.	.	16en	.	.
8F	.	.	16f	.	.
.	.	.	16b-JJ	.	[
=65	=65	=65	=65	=65	=65
*	*	*	*^	*	*
!	!	!	!	!LO:TX:a:t=P:diminuendolike accent:problem	!	!
4e-	4.F]	.	16ccLL	4g^<	.	[
.	.	.	16dd	.	.	.
.	.	.	16bn	.	.	.
.	.	.	16cc	.	.	.
8f	.	.	16ee-	8a	.	[
.	.	.	16ddJJ	.	.	.
4d	4B-	.	16b-X\LL	4.rdyy	.	.
.	.	.	16cc	.	.	.
.	.	.	16b-	.	.	.
.	.	.	16a	.	.	.
8r	8rGyy	.	16b-	.	.	.
.	.	.	16ffJJ)	.	.	.
*	*	*	*v	*v	*	*
*clefG2	*	*	*	*	*
!!LO:LB:g=original
=66	=66	=66	=66	=66	=66
4ee-	[<2.f	.	(>16ggLL	.	<
.	.	.	16aa	.	.
.	.	.	16gg	.	.
.	.	.	16ff	.	.
8cc	.	.	16gg	.	.
.	.	.	16aaJJ	.	.
4dd	.	.	16ffLL	.	.
.	.	.	16gg	.	.
.	.	.	16ff	.	.
.	.	.	16een	.	.
8f	.	.	16ff	.	.
.	.	.	16bb-JJ	.	[
=67	=67	=67	=67	=67	=67
*	*	*	*^	*	*
(>4ee-	4.f]	.	16cccLL	4gg	.	[
.	.	.	16ddd	.	.	.
.	.	.	16bbn	.	.	.
.	.	.	16ccc	.	.	.
8ff	.	.	16eee-	8aa	.	.
.	.	.	16dddJJ	.	.	[
4dd\)	4b-	.	16bb-X\LL	4.rddyy	.	.
.	.	.	16ccc	.	.	.
.	.	.	16bb-	.	.	.
.	.	.	16aa	.	.	.
8r	8rfyy	.	16bb-	.	.	.
.	.	.	16ccc#XJJ)	.	.	.
*v	*v	*	*	*	*	*
*	*	*v	*v	*	*
*clefF4	*	*	*	*
=68	=68	=68	=68	=68
.	.	8qdd/	.	.
*ped	*	*8va	*	*
8GG'>L	.	[>8eeee-L	5	>
(>8B-	.	(>16eeee-L]	.	.
.	.	16dddd	5	.
8DJ)	.	16cccc	.	.
.	.	16bbb-JJ)	.	]
.	.	8qbb-/	.	.
8BB-'>L	.	[>8ccccL	.	>
(>8d	.	(>16ccccL]	.	.
.	.	16bbb-	.	.
8GJ)	.	16aaa	.	.
*Xped	*	*	*	*
.	.	16gggJJ)	.	]
=69	=69	=69	=69	=69
*ped	*	*	*	*
8C'>L	.	16aaaLL)	5	.
.	.	16ggg	.	.
(>8e-	.	16fff	.	.
.	.	16eee-	.	.
8AJ	.	16fff	5	.
.	.	16eee-JJ	.	.
*	*	*X8va	*	*
!	!	!LO:TX:a:t=loco	!	!
8g)	.	16dddLL	.	.
.	.	16ccc	.	.
8r	.	16aa	1	.
.	.	16gg^<	4	.
*Xped	*	*	*	*
8r	.	16ff	.	.
.	.	16ee-JJ)	.	.
!!LO:PB:g=original
=70	=70	=70	=70	=70
*ped	*	*	*	*
(>8D'>L	.	(>16ddLL	.	.
.	.	16gg	.	.
8d	.	16bb-	.	.
.	.	16eee-J	.	.
*Xped	*	*	*	*
8gJ) 8B-	.	8ddd'>J)	.	.
*ped	*	*	*	*
!	!	!LO:TX:a:t=P:note-head-side tuplet number:problem	!	!
(>8D'>L	.	(>24ddLL	.	>
.	.	24ee-	.	.
.	.	24dd)	.	]
8d	.	(>16cc#X	.	.
.	.	16dd	.	.
8f#XJ) 8c	.	16bb-	.	.
*Xped	*	*	*	*
.	.	16aaJJ)	.	.
=71	=71	=71	=71	=71
8g 8B- 8G	.	16gg'>LL	.	.
.	.	16gg^<	.	.
8r	.	(>16fff#X	.	.
.	.	16ggg)	.	.
*clefG2	*	*	*	*
16r	.	16ggJJ	.	.
(>16gg	.	16r	.	.
8g)	.	4r	.	.
8r	.	.	.	.
*clefF4	*	*	*	*
=||	=||	=||	=||	=||
!LO:TX:t=P:cross-measure beam:problem	!	!LO:TX:a:t=P:cross-measure beam:problem	!	!
(>8A	.	8g-X^< (<8e-	.	.
=72	=72	=72	=72	=72
*^	*	*	*	*
8B-)	8ryy	.	(>8f 8d)	.	.
*ped	*	*	*	*	*
!	!	!	!LO:TX:a:t=P:mixed beam:problem	!	!
4.ryy	4r	.	16dLL\	.	.
.	.	.	16f\	.	.
.	.	.	16F</	.	.
.	.	.	16B-</JJ	.	.
.	8BBB-\	5	16dLL	4	.
.	.	.	16d	1	.
8ryy	[<4BB-	5	16f	4	.
.	.	.	16d	.	.
(>8En	.	.	16a 16c#X	.	.
*Xped	*	*	*	*	*
.	.	.	16gJJ	.	.
=73	=73	=73	=73	=73	=73
4rByy	8FL) 8BB-]	.	16dLL	.	<
.	.	.	16f	.	.
*clefG2	*	*	*	*	*
.	8d	1	16b-	.	.
.	.	.	16f	.	.
4.e-X	8e-XJ	2	16a	.	.
.	.	.	16g-XJJ	.	.
.	4.B-	.	16ccLL	.	.
.	.	.	16f	.	.
.	.	.	16b-	.	.
.	.	.	16dd	.	.
8d	.	3	16ff	.	.
.	.	.	16dddJJ)	.	[[
!!LO:LB:g=original
=74	=74	=74	=74	=74	=74
!LO:TX:a:t=P:takt błędnie się wyświetla:problem	!	!	!	!	!
8b-'>	2raayy	.	8bb-'>	.	.
!	!	!	!LO:TX:a:t=P:mixed beam:problem	!	!
8r	.	.	(>\16d^LL	.	.
.	.	.	16f\	.	.
8r	.	.	16F</	.	.
!	!	!	!LO:TX:t=P:klucz błędnie wyświetla się dwa razy:problem	!	!
.	.	.	16B-</JJ	.	.
*clefF4	*	*	*	*	*
8BBB-\	.	.	16dLL	.	.
.	.	.	16d	.	.
8rAyy	[<4BB-\	.	16f	.	.
.	.	.	16d	.	.
!	!	!	!LO:TX:a:t=P:diminuendolike accent:problem	!	!
16ryy	.	.	16a^ 16c#X	.	.
!LO:N:vis=8	!	!	!	!	!
16En/	.	.	16gJJ	.	.
*v	*v	*	*	*	*
=75	=75	=75	=75	=75
8FL 8BB-]	.	16dLL	.	<
.	.	16f	.	.
8d	.	16b-	.	.
.	.	16f	.	.
8e-J	.	16a	.	.
.	.	16g-XJJ	.	.
4d	.	16ccLL	.	.
.	.	16f	.	.
.	.	16b-	.	.
.	.	16dd	.	.
8F	.	16ff	.	.
.	.	16bb-JJ)	.	[[
=76	=76	=76	=76	=76
*ped	*	*	*	*
(>16BB-LL	.	8bbb-`>	.	sf
16F	.	.	.	.
16B-	.	8r	.	.
16d	.	.	.	.
16B-	.	(>8ddd 8dd	.	<
*Xped	*	*	*	*
16FJJ)	.	.	.	.
*ped	*	*	*	*
(>16BB-LL	.	4fff) 4ff	.	[
16F	.	.	.	.
16A	.	.	.	.
16c	.	.	.	.
16A	.	(>8ccc 8cc	.	.
*Xped	*	*	*	*
16FJJ)	.	.	.	.
=77	=77	=77	=77	=77
*^	*	*	*	*
(>16BB-LL	4.BB-/	.	8dddL)'> 8dd	.	.
16F\	.	.	.	.	.
16A-X	.	.	16r	.	.
16B-	.	.	(>16ccck 16cc	.	.
16A-	.	.	8bb-J 8b-	.	<
16FJJ)	.	.	.	.	.
!	!	!	!LO:S:s=3:note:problem:note-level slur	!	!
(>16BB-LL]	4.BB-/	.	(>4eee-) (>4ee-	.	[
16E-\	.	.	.	.	.
16G	.	.	.	.	.
16B-	.	.	.	.	.
16G	.	.	8rb	.	.
16E-JJ)	.	.	.	.	.
!!LO:LB:g=original
=78	=78	=78	=78	=78	=78
!	!	!	!LO:S:s=2:note:problem:note-level slur	!	!
(>4.BB-	16BB-LL	.	8eee-L) 8ee-)	.	[
.	16E-	.	.	.	.
.	16G-X	.	16r	.	.
.	16B-	.	(>16bb-k 16b-	.	.
.	16G-	.	8bb-J 8b-	.	.
.	16E-JJ)	.	.	.	.
*ped	*	*	*	*	*
(>16BB-LL	4.ryy	.	8cccL 8cc	.	<
16G-	.	.	.	.	.
16B-	.	.	16r	.	.
16e-	.	.	(>16bb-k) 16b-	.	.
16B-	.	.	8cccJ 8cc	.	.
*Xped	*	*	*	*	*
16G-JJ)	.	.	.	.	.
*v	*v	*	*	*	*
=79	=79	=79	=79	=79
*ped	*	*	*	*
(>16BB-LL	.	[>4.ddd) [>4.dd	.	sf
16F	.	.	.	.
16B-	.	.	.	.
16d	.	.	.	.
16B-	.	.	.	.
*Xped	*	*	*	*
16FJJ)	.	.	.	.
*ped	*	*	*	*
(>16BB-LL	.	4ddd] 4dd]	.	.
!	!	!LO:TX:t=riten.	!	!
16En	.	.	.	.
16G#X	.	.	.	.
16d	.	.	.	.
16G#	.	8eeen 8een	.	.
*Xped	*	*	*	*
16EJJ)	.	.	.	.
=80	=80	=80	=80	=80
*ped	*	*8va	*	*
(>8AAL	.	(>16aa^<LL	.	.
.	.	16ddd	.	.
8dJ) 8A 8F	.	16fff	.	p
*Xped	*	*	*	*
.	.	16bbb-JJ)	.	.
8r	.	8aaa'>	.	.
*ped	*	*	*	*
!	!	!LO:TX:a:t=P:diminuendolike accent:problem	!	!
!	!	!LO:TX:a:t=P:note-head-side tuplet number:problem	!	!
(>8AAL	.	(>24aa^<LL	.	.
.	.	24bb-	.	.
.	.	24aa)	.	.
8c#XJ) 8G	.	(>16gg#X	.	.
.	.	16aa	.	.
*Xped	*	*	*	*
8r	.	16.fff	.	.
.	.	32eeenJJk	.	.
=81	=81	=81	=81	=81
*ped	*	*	*	*
4d 4F 4D	.	(>16dddLL)	.	.
.	.	16ddd	.	.
.	.	16cccc#X	.	.
.	.	16dddd)	.	.
*clefG2	*	*	*	*
16r	.	16ddd'JJ)	.	.
(>16ddd	.	16r	.	.
*	*	*X8va	*	*
8dd)	.	8r	.	.
8r	.	8r	.	.
*Xped	*	*	*	*
.	.	.	.	.
*clefF4	*	*	*	*
!	!	!LO:TX:a:t=loco	!	!
!	!	!LO:TX:a:t=P:łuk rozpoczyna się w dół:problem	!	!
8d	.	(>8f	.	.
!!LO:LB:g=original
=82	=82	=82	=82	=82
*^	*	*	*	*
(>4e-	[<2.F	.	16gLL	.	.
.	.	.	16a	.	.
.	.	.	16g	.	.
.	.	.	16f	.	.
8c	.	.	16g	.	.
.	.	.	16aJJ	.	.
!	!	!	!LO:TX:t=poco	!	!
4d	.	.	16fLL	.	.
.	.	.	16g	.	.
.	.	.	16f	.	.
.	.	.	16en	.	.
8F	.	.	16f	.	.
.	.	.	16b-JJ	.	.
=83	=83	=83	=83	=83	=83
*	*	*	*^	*	*
4e-	2.F_<	.	16ccLL	4g	.	<
.	.	.	16dd	.	.	.
.	.	.	16bn	.	.	.
.	.	.	16cc	.	.	.
8f	.	.	16ee-	8a	.	.
.	.	.	16ddJJ	.	.	.
!	!	!	!LO:TX:a:t=P:note-head-side tuplet number:problem	!	!	!
4d	.	.	(<24b-X/LL	4rdyy	.	.
.	.	.	24cc	.	.	.
.	.	.	24b-JJ)	.	.	.
.	.	.	16aLL	.	.	.
.	.	.	16b-	.	.	.
8Bn)	.	.	16.gg	8a-X	.	.
.	.	.	32ffJJk	.	.	.
=84	=84	=84	=84	=84	=84	=84
8.cL	2F]	.	16gLL	8g	.	>
.	.	.	16ff	.	.	.
.	.	.	16ee-	4reyy	.	.
(>16B-Xk	.	.	16dd	.	.	.
8AJ	.	.	16ee-	.	.	]
.	.	.	16g-XJJ	.	.	.
4B-	.	.	16f/LL	4.rcyy	.	>
.	.	.	16ee-	.	.	.
.	[<4F^<	.	16dd	.	.	.
.	.	.	16cc#X	.	.	.
8G)	.	.	16dd	.	.	]
.	.	.	16fJJ	.	.	.
*	*	*	*v	*v	*	*
=85	=85	=85	=85	=85	=85
8B-L	[<4.F]	.	16enLL	.	<
.	.	.	16dd-X	.	.
8c	.	.	16cc	.	.
.	.	.	16e	.	.
8d-XJ	.	.	16cc	.	.
.	.	.	16b-JJ)	.	[
8ryy	8c 8F]	.	(>16aLL	.	.
.	.	.	16f	.	.
8rD	8ryy	.	16a	.	.
.	.	.	16cc	.	.
*clefG2	*	*	*	*	*
8rggyy	[<8f\	.	16ff	.	.
.	.	.	16fffJJ))	.	.
!!LO:LB:g=original
=86	=86	=86	=86	=86	=86
(>4ee-	2.f_<	.	16ggLL	.	.
.	.	.	16aa	.	.
.	.	.	16gg	.	.
.	.	.	16ff	.	.
8cc	.	.	16gg	.	.
.	.	.	16aaJJ	.	.
4dd	.	.	16ffLL	.	.
.	.	.	16gg	.	<
.	.	.	16ff	.	.
.	.	.	16een	.	.
8f	.	.	16ff	.	.
.	.	.	16bb-JJ	.	.
=87	=87	=87	=87	=87	=87
*	*	*	*^	*	*
*	*	*	*8va	*	*	*
4ee-	4.f]	.	16ccc/LL	4gg\	.	.
.	.	.	16ddd	.	.	.
.	.	.	16bbn	.	.	.
.	.	.	16ccc	.	.	.
8ff	.	.	16eee-	8aa\	.	.
.	.	.	16dddJJ	.	.	.
!	!	!	!LO:TX:a:t=P:note-head-side tuplet number:problem	!	!	!
8dd\) 8b-\	8ryy	.	(>24bb-XLL	4.rGyy	.	p
.	.	.	24ccc	.	.	.
.	.	.	24bb-JJ)	.	.	.
8r	8ryy	.	16aaLL	.	.	.
.	.	.	(>16bb-	.	.	.
.	.	.	8qbb-/	.	.	.
8a-X/ 8d/ 8B-/	8ryy	.	16cccc)	.	.	.
.	.	.	32rddd	.	.	.
.	.	.	32bbb-JJk	.	.	.
*	*	*	*X8va	*	*	*
*v	*v	*	*	*	*	*
*	*	*v	*v	*	*
*clefF4	*	*	*	*
=88	=88	=88	=88	=88
*ped	*	*	*	*
!	!	!LO:TX:a:t=loco	!	!
!	!	!LO:TX:t=leggieris	!	!
(>8E-L	.	16.fff#XLL)	.	.
.	.	(>32gggk	.	.
8B-	.	16.ddd))	.	.
.	.	(>32eee-k	.	.
8cJ	.	16.aa))	.	.
.	.	(>32bb-JJk	.	.
4.g-X)	.	16.ffnLL)	.	.
.	.	(32gg-Xk	.	.
.	.	16.dd))	.	.
.	.	(>32ee-k	.	.
.	.	16.bn))	.	.
*Xped	*	*	*	*
.	.	(>32ccJJk	.	.
!!LO:LB:g=original
=89	=89	=89	=89	=89
!LO:N:vis=4.	!	!	!	!
(>4e- 4A 4F	.	(<16g-X^>LL)	.	.
.	.	16f	.	.
.	.	16en	.	.
.	.	16f	.	.
8c	.	16dd^> 16a	.	.
.	.	16ccJJ)	.	.
8d) 8B-	.	8b-)	.	.
8r	.	8r	.	.
=||	=||	=||	=||	=||
8d (>8D	.	(>8ddd 8dd	.	ff
=90	=90	=90	=90	=90
8B-L 8BB-)	.	8bb-L) 8b-	.	.
16r	.	16r	.	.
16Gk (<16GG	.	(>16ggk 16g	.	.
8FJ 8FF	.	8ffJ 8f	.	.
8D 8DD)	.	8dd'</) 8d/	.	.
8r	.	8r	.	.
8FF 8FFF	.	8f (<8F	.	.
=91	=91	=91	=91	=91
!	!	!LO:S:s=2:note:problem:note-level slur	!	!LO:HP:a
4.FF (<4.FFF	.	(>4g (<4e- 4A)	.	>
.	.	8f))	.	]
8BB- 8BBB-)	.	8gL 8d (<8B-	.	p
8r	.	8fJ)	.	.
8D'< 8DD	.	8ddd'> 8ff#X 8cc	.	f
=92	=92	=92	=92	=92
8E-'<L 8EE-	.	8bb-'>L 8gg 8cc#X	.	.
8En'< 8EEn	.	8gg'> 8dd-X 8b-	.	.
8F'<J 8FF	.	8ff'>J 8ccn 8a	.	.
8F#XL 8FF#X	.	8ddn'<L 8a 8d	.	.
8GJ 8GG	.	8b-'<J 8g 8d	.	.
!LO:TX:a:t=P:cross-measure beam:problem	!	!LO:TX:a:t=P:cross-measure beam:problem	!	!
[>8B- 8En	.	8g^< (<8c#X	.	.
=93	=93	=93	=93	=93
8B-] 8F	.	8f 8d)	.	.
8r	.	8r	.	.
8F'L 8FF	.	8ff'L 8ee- 8a 8f	.	ff
8BB-'J 8BBB-	.	8bb-'J 8dd 8b-	.	.
8r	.	8r	.	.
!!LO:PB:g=original
=94||	=94||	=94||	=94||	=94||
!	!	!LO:TX:a:B:t=Scherzo. [quarter].=66.	!	!
(>8F 8BB-	.	8f (<8d	.	pp
=95	=95	=95	=95	=95
16F'LL) 16BB-	.	16f#X'LL 16e-	.	<
16F'JJ 16BB-	.	16g'JJ 16e-)	.	.
8F'L 8BB-	.	8aL 8e-	.	.
16r	.	16r	.	[
(>16FJk 16BB-	.	16gJk (<16e-	.	.
16F'LL) 16BB-	.	16en'LL 16d)	.	<
16F'JJ 16BB-	.	16fn'JJ 16d	.	.
8F'L 8BB-	.	8a'L 8d	.	.
16r	.	16r	.	[
[16FJk 16BB-	.	16b-Jk (<16d	.	.
=96	=96	=96	=96	=96
16F'LL] 16FF	.	16bn'LL 16a 16e-)	.	>
16F'JJ 16FF	.	16cc'JJ 16a 16e-	.	]
8F'L 8FF	.	8dd'L 8a 8e-	.	.
16r	.	16r	.	<
[16FJk 16FF	.	16ccJk 16a (<16e-'<	.	.
16F'LL] 16BB-	.	16a'LL 16d)	.	.
16FJJ 16BB-	.	16b'JJ 16d	.	.
8e-L 8B-	.	8ggL 8b 8g	.	[
16rG	.	16r	.	.
(>16dJk 16B-	.	16ffJk 16b (<16f	.	.
=97	=97	=97	=97	=97
16F'LL) 16FF	.	16f#X'LL 16e-)	.	.
16F'JJ 16FF	.	16g'JJ 16e-	.	.
8FL 8FF	.	8aL 8e- 8A	.	.
16r	.	16r	.	.
[16FJk 16FF	.	16gJk 16e- (<16A	.	.
16F'LL] 16BB-	.	16en'LL 16d 16B-)	.	.
16F'JJ 16BB-	.	16fnJJ 16d	.	.
8F'L 8BB-	.	8aL 8d	.	.
16r	.	16r	.	.
(>16FJk 16BB-	.	16b-Jk (<16d	.	.
=98	=98	=98	=98	=98
16G-X'LL 16BB-)	.	16bn'LL 16a 16e-)	.	<
16G-'JJ 16BB-	.	16cc'JJ 16a 16e-	.	.
8G-L 8BB-	.	8ee-L 8a 8e-	.	.
16r	.	16r	.	[
(>16FJk 16BB-	.	16ddJk 16a (<16e-	.	.
.	.	8qcc/	.	<
16B-'LL) 16BB-	.	16b'LL 16d)	.	.
16B-'JJ) 16BB-	.	16a'JJ 16d)	.	.
8B- 8BB-L	.	8b'L 8d	.	.
16r	.	16r	.	.
16AJ	.	16ccJk 16d	.	[[
!!LO:LB:g=original
=99	=99	=99	=99	=99
16d'LL 16G	.	16cc#X'LL 16b- 16g	.	<
16d'JJ 16G	.	16dd'JJ 16b- 16g	.	.
8dL 8G	.	8ee-'</L 8b-/ 8g/	.	[
16r	.	16r	.	.
(>16GJk	.	16ddJk 16b- (<16g	.	.
16GLL) 16BB-	.	16ccn'LL 16g 16d)	.	>
16G'JJ 16BB-	.	16b-'JJ 16g 16d	.	.
8G'L 8BB-	.	8a'L 8d	.	.
16r	.	16r	.	.
(>16GJk 16BB-	.	16gJk (<16d	.	]
=100	=100	=100	=100	=100
16A'LL) 16G 16C	.	16dd'/LL 16a/ 16g/	.	<
16A'JJ 16G 16C	.	16ee-'JJ 16a 16g)	.	.
8AL 8G 8C	.	8ff'/L 8a/ 8g/	.	[
16r	.	16r	.	.
(>16AJk 16G 16C	.	16ee-Jk 16a (<16g	.	.
16c'LL) 16G 16E-	.	16dd'LL 16a 16g)	.	>
16c'JJ 16G 16E-	.	16cc'JJ 16a 16g	.	.
8cL 8G 8E-	.	8b-'L 8g	.	.
16r	.	16r	.	.
(>16cJk 16G 16E-	.	16aJk [16g'<	.	]
=101	=101	=101	=101	=101
16B-'LL) 16D	.	16cc#X'LL 16g]	.	<
16B-'JJ 16D	.	16dd'JJ 16g	.	.
8B-L 8D	.	8ggL 8g	.	.
16r	.	16r	.	.
16B-Jk 16D	.	16ee-Jk (<16g	.	[
16c'LL 16A 16D	.	16dd'LL 16f#X)	.	.
16c'JJ 16A 16D	.	16cc#X'JJ 16f#	.	.
8c'L 8A 8D	.	8ccn'L 8f#	.	.
16r	.	16r	.	.
(>16cJk 16F#X 16D	.	16aJk (<16d	.	.
=102	=102	=102	=102	=102
16B-'LL) 16G	.	16g'LL 16d)	.	.
16c'JJ 16G	.	16f#X'JJ 16e-	.	>
!	!	!LO:TX:t=e riten	!	!
8B-L 8G	.	8gL 8d	.	.
16r	.	16rg	.	.
(>16B-Jk'>	.	16g-XJk (<16d-X	.	.
16ALL)	.	16f#LL 16c)	.	.
16B-'JJ	.	16enJJ 16d-	.	.
8AL	.	8f#'L 8c	.	.
16r	.	16r	.	.
[16FJk 16FF	.	16f#Jk 16e-X (<16A	.	.
!!LO:LB:g=original
=103	=103	=103	=103	=103
16F'LL] 16BB-	.	16f'LL 16d 16B-)	.	sf
16F'JJ 16BB-	.	16g'JJ 16d	.	.
8F'L 8BB-	.	8enL 8d	.	.
16r	.	16r	.	.
16FJk 16BB-	.	16fJk (<16d	.	.
16F'LL 16BB-	.	16f#X'LL) 16e-X	.	<
16F'JJ 16BB-	.	16g'JJ 16e-	.	.
8F'L 8BB-	.	8g#X^>L 8e-	.	.
16r	.	16r	.	.
(>16FJk 16BB-	.	16aJk (<16e-	.	[[
=104	=104	=104	=104	=104
16F'LL) 16BB-	.	16cc'LL 16d)	.	.
16F'JJ 16BB-	.	16a'JJ 16d)	.	.
8F'L 8BB-	.	8ccL 8d	.	.
16r	.	16r	.	.
(>16B-Jk 16BB-	.	16b-Jk (>16d	.	.
*clefG2	*	*	*	*
16c#X'LL) 16B-	.	16een'LL 16b-)	.	<
16d'JJ 16B-	.	16ff'JJ 16b-	.	.
8e-X'L 8B-	.	8ggL 8b-	.	[f>
16re	.	16r	.	.
16dJk 16B-	.	16ffJk 16b-	.	]
=105	=105	=105	=105	=105
*clefF4	*	*	*	*
16F'LL 16BB-	.	16f'LL 16d	.	p<
16F'JJ 16BB-	.	16g'JJ 16d	.	.
8F'L 8BB-	.	8enL 8d	.	.
16r	.	16r	.	.
(>16FJk 16BB-	.	16fJk (<16d	.	.
16F'LL) 16BB-	.	16f#X'LL) 16e-X 16c	.	.
16F'JJ 16BB-	.	16g'JJ 16e- 16c	.	.
8F'L 8BB-	.	8g#XL 8e- 8c	.	.
16r	.	16r	.	.
16FJk 16BB-	.	16aJk 16e- 16c	.	.
=106	=106	=106	=106	=106
16B-'LL 16F 16BB-	.	16cc'LL 16d	.	.
16B-'JJ 16F 16BB-	.	16a'JJ 16d	.	[
8B-L 8F 8BB-	.	8cc'L 8d	.	.
16r	.	16r	.	.
16B-Jk 16F 16BB-	.	16b-Jk 16d	.	<
*clefG2	*	*	*	*
16fLL 16c#X	.	16aa'LL 16ff 16a	.	.
16fJJ 16d	.	16bb-'JJ 16ff 16b-	.	[f>
8fL 8e-	.	8ccc'L 8ff 8cc	.	.
16rf	.	16r	.	.
16fJk 16d	.	16bb-Jk 16ff 16b-	.	]
*clefF4	*	*	*	*
!!LO:LB:g=original
=107	=107	=107	=107	=107
16f'LL 16B-	.	16ee-LL 16a	.	p
16f'JJ 16B-	.	16cc#XJJ 16a	.	.
8f'L 8B-	.	8ee-L 8a	.	.
16r	.	16r	.	.
[16B-Jk 16BB-	.	(>16ddJk 16a	.	.
16B-'LL] 16E-	.	16ff'LL) 16g	.	.
16B-'JJ 16E-	.	16ee-'JJ 16g	.	.
8B-L 8E-	.	8an'L 8g	.	.
16r	.	16r	.	.
(>16B-Jk 16E-	.	16b-Jk [16g	.	.
=108	=108	=108	=108	=108
16A'LL) 16E-	.	16bn'LL 16g]	.	.
16A'JJ 16E-	.	16cc'JJ 16g	.	.
8A'L 8E-	.	8ddL 8g	.	.
16r	.	16r	.	.
[16AJk 16E-	.	16cc#XJk (<16g	.	.
16A'LL] 16D	.	16ee-'LL 16f#X)	.	.
16A'JJ 16D	.	16dd'JJ 16f#	.	.
8AL 8D	.	8g#XL 8f#	.	.
16r	.	16r	.	.
(>16dJk 16A 16D	.	16aJk (<16f#	.	.
=109	=109	=109	=109	=109
16d'LL) 16G	.	16ccnLL 16fn)	.	.
16d'JJ 16G	.	16a#XJJ 16f	.	.
8dL 8G	.	8cc'L 8f	.	.
16r	.	16r	.	.
[16GJk 16GG	.	16bnJk (<16f	.	.
16GLL] 16C	.	16dd'LL 16b-X 16en)	.	.
16G'JJ 16C	.	16cc'JJ 16b- 16e	.	.
8GL 8C	.	8f#XL 8e	.	.
16r	.	16r	.	.
(>16B-Jk 16G 16C	.	16gJk (<16e	.	.
=110	=110	=110	=110	=110
16cLL) 16F	.	16g#X'LL 16e-X)	.	.
16cJJ 16F	.	16a'JJ 16e-	.	.
8cL 8F	.	8a'L 8e-	.	<
16r	.	16r	.	.
16c#XJk 16F	.	16aJk (<16en'<	.	.
16c#'LL 16F	.	16a'<LL 16e)	.	.
16d'JJ 16F	.	16a'JJ 16f	.	.
8dL 8F	.	8a'/L 8f/	.	.
16r	.	16r	.	.
16d'Jk 16F	.	16ffJk 16b-	.	.
!!LO:LB:g=original
=111	=111	=111	=111	=111
!	!	!	!	!LO:DY:rj
16e-'LL 16F	.	16ff#X'LL 16b-	.	p
16e-'JJ 16F	.	16gg'JJ 16b-	.	.
8e-L 8F	.	8aaL 8a	.	.
16r	.	16r	.	.
(>16c#XJk 16F	.	16ggJk (>16a	.	.
16c#LL0) 16F	.	16een'LL 16b-	.	.
16dJJ 16F	.	16ffn'JJ 16b-)	.	.
8dL 8F	.	8aa'L 8b-	.	<
16r	.	16r	.	.
(>16d-XJk 16F	.	(>16bb-Jk 16b-	.	.
=112	=112	=112	=112	=112
16c'LL) 16F	.	16bbn'>LL) 16een	.	.
16c'JJ 16F	.	16cccJJ 16bb- 16ee	.	.
8cL 8F	.	8dddL 8aa 8ee-X	.	.
16r	.	16r	.	.
(>16fJk 16F	.	(>16cccJk 16aa 16ee-	.	.
16fLL) 16B-	.	16cccLL 16dd)	.	.
16f'JJ 16B-	.	16bb-'JJ 16dd	.	.
*clefG2	*	*	*	*
8b-'L 8d	.	8gggL 8aa-X	.	.
16r	.	16rgg	.	.
(<16b-'Jk 16d	.	(>16fffJk 16aa-	.	.
=113	=113	=113	=113	=113
!	!	!LO:TX:t=poco stretto	!	!
16b-'LL) 16d	.	16fff'LL) 16aa-X	.	.
16b-'JJ 16e-	.	16eee-'JJ 16gg	.	.
8b-L 8e-	.	8eee-'L 8gg	.	.
16r	.	16ree	.	.
16aJk 16c#X	.	16eee-'Jk 16gg	.	.
16a'LL 16c#	.	16eee-'LL 16gg	.	.
16a'JJ 16d	.	16ddd'JJ 16ff#X	.	.
8a'L 8d	.	8dddL 8ff#	.	.
16r	.	16ree	.	.
16a-XJk 16Bn	.	16dddJk 16ffn	.	.
=114	=114	=114	=114	=114
!	!	!LO:TX:t=di	!	!
16g'LL 16Bn	.	16dddLL 16ff	.	.
16g'JJ 16c	.	16cccJJ 16een	.	.
8gL 8c	.	8cccL 8ee	.	.
16r	.	16r	.	.
!	!	!LO:TX:t=riten.	!	!
16g-XJk 16B-X	.	16cccJk 16ee-X	.	.
16fLL 16A	.	16ccc'LL 16ee-	.	.
16fJJ 16B-	.	16bb-'JJ 16dd	.	.
8enL 8c	.	8aa'L 8b-	.	.
16rf	.	16r	.	.
16eJk 16c	.	16ggJk 16b-	.	.
*clefF4	*	*	*	*
!!LO:LB:g=original
=115	=115	=115	=115	=115
*ped	*	*	*	*
!	!	!LO:TX:t=dolcissimo	!	!
16f'LL 16c 16F	.	(>16gg'LL 16ee- 16a	.	.
16f'>JJ 16e- 16F	.	16gg'JJ 16dd 16a	.	.
8f'L 8e- 8F	.	8gg'L 8dd 8a	.	.
16r	.	16r	.	.
*Xped	*	*	*	*
16f'Jk 16e- 16F	.	16ggJk 16cc 16a	.	.
*ped	*	*	*	*
16f'LL 16d 16F	.	16gg'LL 16b-	.	.
16f'JJ 16d 16F	.	16ff'JJ 16b-	.	.
8f'L 8d 8F	.	8aa'L 8b-	.	.
16r	.	16r	.	.
*Xped	*	*	*	*
(>16dJk 16F	.	16bb-Jk 16b-	.	.
=116	=116	=116	=116	=116
16c'LL) 16F#X	.	16ee-'LL 16a	.	>
16d'JJ 16F#	.	16dd'JJ) 16a	.	.
8d'L 8F#	.	8ddL 8a	.	.
16r	.	16r	.	.
(>16e-'Jk 16F#	.	16ccJk 16a	.	]
16e-'LL 16Fn)	.	16ccLL (<16a-X	.	.
!	!	!LO:TX:t=riten.	!	!
(>16dJJ 16F	.	16bnJJ 16a-	.	.
8cL 8E-	.	8ccL 8g	.	.
8BnJ 8D	.	8ddJ 8g 8f	.	.
=117	=117	=117	=117	=117
16Bn'>LL 16G 16D	.	16ddLL 16g 16f	.	.
16c'>JJ 16G 16C	.	16ee-JJ 16g 16e-	.	.
8c 8G 8C)	.	8ee- 8g 8e-)	.	.
8r	.	16r	.	.
.	.	(>16ee-	.	pp
4r	.	(>16ddLL)	.	.
.	.	16ee-'JJ	.	.
.	.	8ee-'L	.	.
16r	.	16r	.	.
(16c' 16G-X	.	(>16eenJk) 16b-	.	.
=118	=118	=118	=118	=118
!	!	!LO:TX:t=rall.	!	!
16c'>LL 16G-X	.	16eenLL 16b-	.	.
16c'>JJ 16F	.	16ff'>JJ 16a	.	.
8c'> 8F)	.	8ff'>) 8a	.	.
8r	.	16r	.	.
.	.	(>16ff'>	.	.
4r	.	16ee'>LL	.	.
.	.	16ff'>JJ	.	.
.	.	8ff'>	.	.
8r	.	(>8gg-X^<)	.	.
!!LO:PB:g=original
=119||	=119||	=119||	=119||	=119||
*k[b-e-a-d-g-]	*	*k[b-e-a-d-g-]	*	*
*ped	*	*	*	*
!	!	!LO:TX:a:B:t=Lento. [quarter].=43.	!	!
!	!	!LO:TX:t=con anima	!	!
(>16AA-LL	.	8b-)	.	.
!LO:TX:t=legato	!	!	!	!
16G-	.	.	.	.
16A-	.	4cc^>	.	.
16e-	.	.	.	.
*Xped	*	*	*	*
16G-	.	.	.	.
16A-JJ)	.	.	.	.
*ped	*	*	*	*
(>16AA-LL	.	(>8a-L	.	<
16F	.	.	.	.
16A-	.	8dd-	.	.
16d-	.	.	.	.
*Xped	*	*	*	*
16F	.	8ffJ	.	[
16A-JJ)	.	.	.	.
=120	=120	=120	=120	=120
*ped	*	*	*	*
(>16AA-LL	.	4.aa-	.	.
16G-	.	.	.	.
16A-	.	.	.	.
16c	.	.	.	.
*Xped	*	*	*	*
16G-	.	.	.	.
16A-JJ)	.	.	.	.
*ped	*	*	*	*
(>16AA-LL	.	4ff)	.	.
16F	.	.	.	.
16A-	.	.	.	.
16d-	.	.	.	.
*Xped	*	*	*	*
16F	.	(>8a-	.	.
16A-JJ)	.	.	.	.
=121	=121	=121	=121	=121
*ped	*	*	*	*
(>16AA-LL	.	8b-)	.	.
16G-	.	.	.	.
16A-	.	[>8cc^>L	.	.
16e-	.	.	.	.
16G-	.	(>32ccLL]	.	.
.	.	32dd-	.	.
*Xped	*	*	*	*
16A-JJ)	.	32b-	.	.
.	.	32ccJJJ)	.	.
*ped	*	*	*	*
(>16AA-LL	.	(>32a-T\LLL	.	.
.	.	32gn	.	<
16F	.	32a-	.	.
.	.	32b-JJJ	.	.
16A-	.	32ccLLL	.	.
.	.	32dd-	.	.
16d-	.	32ee-	.	.
.	.	32dd-JJJ	.	.
16F	.	32gg-XLLL	.	.
.	.	32ff	.	.
*Xped	*	*	*	*
16A-JJ)	.	32ccc	.	.
.	.	32bb-JJJ	.	[
!!LO:LB:g=original
=122	=122	=122	=122	=122
*ped	*	*	*	*
(>16AA-LL	.	8aa-)	.	.
16G-	.	.	.	.
16A-	.	[>8aa-^<L	.	.
16c	.	.	.	.
!	!	!LO:TX:a:t=P:note-head-side tuplet number:problem	!	!
16G-	.	(>24aa-L]	.	.
*Xped	*	*	*	*
.	.	24gg-	.	.
16A-JJ)	.	.	.	.
.	.	24ffJJ)	.	.
(>16D-LL	.	4ff	.	.
16F	.	.	.	.
16A-	.	.	.	.
16d-)	.	.	.	.
(>16C	.	8r	.	.
16e-JJ 16An 16F)	.	.	.	.
=123	=123	=123	=123	=123
*ped	*	*	*	*
(>16BB-LL	.	8ff	.	.
16F	.	.	.	.
16B-	.	[>8ff^<L	.	.
16d-	.	.	.	.
16F	.	(>32ffLL]	.	.
.	.	32gg-	.	.
16B-JJ)	.	32ee-	.	.
.	.	32ffJJJ	.	.
(>16BB-LL	.	8dd-'>)	.	.
16F	.	.	.	.
16B-	.	[>8dd-L	.	.
16d-	.	.	.	.
16F	.	(>32dd-LL]^>	.	.
.	.	32ee-	.	.
*Xped	*	*	*	*
16B-JJ)	.	32cc	.	.
.	.	32dd-JJJ)	.	.
=124	=124	=124	=124	=124
.	.	8qb-/	.	>
*ped	*	*	*	*
(>16BB-LL	.	(>4bb-	.	.
16G-	.	.	.	.
16B-	.	.	.	.
16e-	.	.	.	.
*Xped	*	*	*	*
16G-	.	16aa-LL	.	.
16B-JJ)	.	16gg-JJ	.	.
*ped	*	*	*	*
(>16BB-LL	.	4ff)	.	]
16F	.	.	.	.
16B-	.	.	.	.
16d-	.	.	.	.
*Xped	*	*	*	*
16F	.	8r	.	.
16B-JJ)	.	.	.	.
!!LO:LB:g=original
=125	=125	=125	=125	=125
*ped	*	*	*	*
(>16FFLL	.	8r	.	.
16F	.	.	.	.
16A-	.	[8cc^<L	.	.
16c)	.	.	.	.
*Xped	*	*	*	*
(>16BB-	.	(>32ccLL]	.	.
.	.	32dd-	.	.
16d-JJ) 16F	.	32b-	.	.
.	.	32ccJJJ	.	.
(>16CLL	.	8a-'<)	.	.
16F	.	.	.	.
16A-	.	L[8a-^>\	.	.
16c)	.	.	.	.
!	!	!LO:TX:a:t=riten.	!	!
(>16C	.	32a-\LL]	.	.
.	.	32cc	.	.
16B-JJ) 16En	.	32gn	.	.
.	.	32ccJJJ	.	.
=126	=126	=126	=126	=126
*ped	*	*	*	*
(>16FFLL	.	(>4.f^<	.	.
16C	.	.	.	.
16A-	1	.	.	.
16F	5	.	.	.
16c	.	.	.	.
16a->JJ)	.	.	.	.
*Xped	*	*	*	*
4r	.	4ff/)	.	.
8r	.	8r	.	.
=127	=127	=127	=127	=127
*^	*	*	*	*
*	*	*	*^	*	*
*ped	*	*	*	*	*	*
16.D-\LL 16.DD-\	8rBBBByy	.	16.fLL 16.d- 16.A-<	2ryy	.	.
32D-Jk 32DD-	.	.	32fJ 32d- 32A-<	.	.	.
8D-J 8DD-	8rBBBByy	.	8fJ 8d- 8A-<	.	.	.
*Xped	*	*	*	*	*	*
8r	8rCCCyy	.	8r	.	.	.
8rBBBByy	\8f'>L (>\8A-	.	8r	.	.	.
*	*	*	*	*rscale:8	*	*
*	*	*	*	*Xtuplet	*	*
*	*	*	*	*cue	*	*
!	!	!	!LO:TX:a:t=P:błędne wyświetlanie nuty:problem	!LO:TX:a:t=P:tutaj problematyczną kwestią było, w jaki sposób zapisać te nuty. Zdecydowałem się na grupę niemiarową o czasie trwania jednej ćwierćnuty, ale chyba nie ma rozwiązania idealnego w tym wypadku:problem	!	!
8.f/L	[>8c 8A-	.	4a-^>/	80b-/L	.	.
!	!	!	!	!LO:TX:a:t=leggierissimo	!	!
.	.	.	.	80a-	.	.
.	.	.	.	80gn	.	.
.	.	.	.	80a-	.	.
.	.	.	.	80b-	.	.
.	.	.	.	80cc	.	.
.	.	.	.	80dd-	.	.
.	.	.	.	80ee-	.	.
.	.	.	.	80ff	.	.
.	.	.	.	80gg-X	.	.
.	8cJ] 8A- 8G-X	.	.	80aa-	.	.
.	.	.	.	80bb-	.	.
*	*	*	*	*8va	*	*
.	.	.	.	80ccc	.	.
.	.	.	.	80ddd-	.	.
.	.	.	.	80eee-	.	.
16e-Jk	.	.	.	80fff	.	.
.	.	.	.	80ggg-	.	.
.	.	.	.	80aaa-	.	.
.	.	.	.	80bbb-	.	.
.	.	.	.	80ccccJ	.	.
*	*	*	*	*rscale:1	*	*
*	*	*	*	*Xcue	*	*
*v	*v	*	*	*	*	*
*	*	*v	*v	*	*
!!LO:LB:g=original
=128	=128	=128	=128	=128
8d-) 8A- 8F	.	8dddd-	.	.
*	*	*X8va	*	*
16r	.	16r	.	.
!	!	!LO:TX:a:t=loco	!	!LO:DY:rj
16D-\LL 16GG-\	.	(>16d-<'>LL 16B-<	.	p
16.D- 16.GG-	.	16.c<'> 16.A-<	.	.
32D-JJk 32GG-	.	32B-<'>JJk 32G-<	.	.
4D-\ 4DD-\	.	4A-<'>) 4F<	.	.
8rC	.	8rg	.	.
=129	=129	=129	=129	=129
*^	*	*	*	*
*	*	*	*^	*	*
!	!	!	!	!	!	!LO:DY:rj
16.D-\LL 16.DD-\	4.rAyy	.	16.a-LL 16.f 16.d- 16.A-<	2ryy	.	f
32D-Jk 32DD-	.	.	32a-Jk 32f 32d- 32A-<	.	.	.
8D-J 8DD-	.	.	8a-J 8f 8d- 8A-<	.	.	.
8r	.	.	8r	.	.	.
8a-> 8f> 8c>	8rggyy	.	8rff	.	.	.
*	*	*	*	*rscale:8	*	*
*	*	*	*	*cue	*	*
!	!	!	!LO:TX:a:t=P:błędne wyświetlanie nuty:problem	!	!	!
8.a->^L (>8.f>	4A-	.	4cc^>/	80dd-/L	.	>
!	!	!	!	!LO:TX:a:t=leggieriss	!	!
.	.	.	.	80cc	.	.
.	.	.	.	80b-	.	.
.	.	.	.	80cc	.	]
.	.	.	.	80dd-	.	.
.	.	.	.	80ee-	.	.
.	.	.	.	80ff	.	.
.	.	.	.	80gg-	.	.
.	.	.	.	80aa-	.	.
.	.	.	.	80bb-	.	.
*	*	*	*	*8va	*	*
.	.	.	.	80ccc	.	.
.	.	.	.	80ddd-	.	.
.	.	.	.	80eee-	.	.
.	.	.	.	80fff	.	.
.	.	.	.	80ggg-	.	.
16g->Jk 16e->	.	.	.	80aaa-	.	.
.	.	.	.	80bbb-	.	.
.	.	.	.	80cccc	.	.
.	.	.	.	80dddd-	.	.
.	.	.	.	80eeee-J	.	.
*	*	*	*	*rscale:1	*	*
*	*	*	*	*Xcue	*	*
*v	*v	*	*	*	*	*
*	*	*v	*v	*	*
=130	=130	=130	=130	=130
8f) 8d-	.	8ffff	.	.
*	*	*X8va	*	*
16r	.	16r	.	.
*clefF4	*	*	*	*
!	!	!LO:TX:a:t=loco	!	!LO:DY:rj
16d- 16D-	.	16ff'> 16a-	.	p
*	*	*tuplet	*	*
!LO:TX:a:t=P:note-head-side tuplet number:problem	!	!LO:TX:a:t=P:note-head-side tuplet number:problem	!	!
(>24d-LL 24G-	.	(>24ee-LL 24an	.	.
24d- 24G-	.	24dd- 24b-	.	.
48rA	.	48r	.	.
48B-JJk)	.	(>48b-JJk) 48g-	.	.
4d-	.	4a-X) 4.f	.	.
8r	.	8r	.	.
!!LO:LB:g=original
=131	=131	=131	=131	=131
*ped	*	*	*	*
!	!	!LO:TX:a:t=dolciss.	!	!
8CC	.	4an 4f 4c	.	.
(>16FLL	.	.	.	.
16An	.	.	.	.
16.dn)	1	8r	.	.
*Xped	*	*	*	*
.	.	.	.	.
(>32cJJk	1	.	.	.
*ped	*	*	*	*
8CL)	.	(>16dddnLL	.	.
.	.	16ccc	.	.
(>16GnL	.	16bb-	.	.
16B-	.	16ggn	.	.
16.d)	1	16dd)	.	.
.	.	32rdd	.	.
*Xped	*	*	*	*
(>32cJJk	1	(>32eenJJk	.	.
=132	=132	=132	=132	=132
*ped	*	*	*	*
8CL)	.	4fft	.	.
(>16FL	.	.	.	.
16An	.	.	.	.
.	.	16qqeen/LL	.	.
.	.	16qqff/JJ	.	.
16.dn)	1	16ggnLL	.	.
.	.	32rff	.	.
*Xped	*	*	*	*
.	.	.	.	.
32cJJk	1	(>32aanJJk)	.	.
*ped	*	*	*	*
(>8CL	.	[>4.cc)	.	.
16EnL	.	.	.	.
16B-	.	.	.	.
16.d)	.	.	.	.
32cJJk	.	.	.	.
=133	=133	=133	=133	=133
!	!	!LO:TX:t=poco	!	!
8CL)	.	(>4cc]	.	.
16GnL	.	.	.	.
16B-	.	.	.	<
16f	.	8ddn	.	.
16enJJ	.	.	.	.
*	*	*Xtuplet	*	*
8CL)	.	24gn'<LL	.	.
.	.	24an'<	.	.
.	.	24b-'<JJ	.	<
(>16GL	.	24cc'>LL	.	.
.	.	24dd'>	.	.
16B-	.	.	.	.
.	.	24een'>JJ	.	.
*clefG2	*	*	*	*
16an	.	16ffLL)	.	.
*Xped	*	*	*	*
16gnJJ)	.	32rdd	.	.
.	.	(>32ggnyJJk	.	[
*clefF4	*	*	*	*
!!LO:LB:g=original
=134	=134	=134	=134	=134
*^	*	*	*	*
4.F/	8FL	.	4.aan)	.	<
.	16An\L	.	.	.	.
.	16c	.	.	.	.
.	16gn>	.	.	.	.
.	16f>JJ	.	.	.	.
.	.	.	16qqgg#X/LL	.	.
.	.	.	16qqaa/JJ	.	.
4.F/	8FL	.	4.aaT	.	.
.	16A\L	.	.	.	.
.	16c	.	.	.	.
.	16en>	.	.	.	[
.	16d#X>JJ	.	.	.	.
.	.	.	(>16qqgg#/LL	.	.
.	.	.	16qqaa/JJ	.	.
*v	*v	*	*	*	*
=135	=135	=135	=135	=135
*ped	*	*8va	*	*
!	!	!LO:TX:t=riten	!	!
(<16EnLL	.	16cccc/LL)	.	>
16An	.	16aaan	.	.
16c	.	16eeen	.	]
*	*	*X8va	*	*
!	!	!LO:TX:a:t=loco	!	!
16en>	.	16ccc	.	.
16any>	.	16aa	.	.
*Xped	*	*	*	*
16bn>JJ)	.	16ffJJ	.	.
8cc>	.	8ee	.	.
16dn'LL 16Bn (<16E	.	(>16ffLL 16g#X	.	.
16d' 16B 16E	.	16ee 16g#	.	.
16d' 16B 16E	.	16dd#X 16g#	.	.
16d'JJ 16B 16E	.	16ddnJJ 16g#	.	.
=136	=136	=136	=136	=136
8c 8An)	.	8cc) 8an	.	.
*ped	*	*8va	*	*
!	!	!LO:TX:t=delicatis	!	!
(>16CLL	.	(>16bbb-LL	.	.
!	!	!LO:TX:a:t=rall.	!	!
16B-	2	16gggn	.	.
16Gn	4	16eeen	.	.
16cJJ	2	16cccJJ	.	.
*Xped	*	*X8va	*	*
!	!	!LO:TX:a:t=loco	!	!
8en)'>	.	16bb-LL	.	.
.	.	16gg	.	.
8r	.	16ee^	.	.
.	.	16cc	.	.
32e-X 32A 32F	.	32ffJJk)	.	.
32r;	.	32r;	.	.
16r	.	(>16gg-X	.	.
!!LO:PB:g=original
=137	=137	=137	=137	=137
!	!	!LO:TX:a:B:t=a Tempo	!	!
*ped	*	*	*	*
(>16AA-LL	.	8b-	.	.
16G-	.	.	.	.
!	!	!LO:TX:a:t=P:brak zakończenia łuku:problem	!	!
16A-	.	4cc^<)	.	.
16e-	.	.	.	.
16G-	.	.	.	.
*Xped	*	*	*	*
16A-JJ)	.	.	.	.
(>16AA-LL	.	(>8a-L	.	<
16F	.	.	.	.
16A-	.	8dd-	.	.
16d-	.	.	.	.
16F	.	8ffJ	.	.
16A-JJ)	.	.	.	[
=138	=138	=138	=138	=138
!	!	!LO:TX:a:t=ten	!	!
(>16AA-LL	.	4.aa-	.	.
16G-	.	.	.	.
16A-	.	.	.	.
16c	.	.	.	.
16G-	.	.	.	.
16A-JJ)	.	.	.	.
(>16D-LL	.	4ff)	.	.
16F	.	.	.	.
16A-	.	.	.	.
16d-	.	.	.	.
16F	.	(>8a-	.	.
16A-JJ)	.	.	.	.
=139	=139	=139	=139	=139
*^	*	*	*	*
4.D-/	(>16D-LL	.	8b-)	.	.
.	16G-\	.	.	.	.
.	16A-	.	[>8cc^>L	.	.
.	16e-	.	.	.	.
.	16G-	.	(>32ccLL]	.	.
.	.	.	32dd-	.	.
.	16A-JJ)	.	32b-	.	.
.	.	.	32ccJJJ)	.	.
4.D-/	(>16D-LL	.	(>32a-LLL	.	.
.	.	.	32b-	.	.
.	16F\	.	32g-	.	.
.	.	.	32a-JJJ	.	<
.	16A-	.	32dd-LLL	.	.
.	.	.	32ee-	.	.
.	16d-	.	32cc	.	.
.	.	.	32dd-JJJ	.	.
.	16F	.	40eenLLL	.	.
.	.	.	40ff	.	.
.	.	.	40ddd-	.	[
.	16A-JJ)	.	.	.	.
.	.	.	40ccc	.	.
.	.	.	40bb-JJJ	.	.
!!LO:LB:g=original
=140	=140	=140	=140	=140	=140
.	.	.	16qqggn/LL	.	.
.	.	.	16qqaa-/JJ	.	.
4.D-/	(>16D-LL	.	(<4.aa-T)	.	.
.	16E-\	.	.	.	.
.	16A-	.	.	.	.
.	16c	.	.	.	.
.	16G-X	.	.	.	.
.	16A-JJ)	.	.	.	.
.	.	.	8qqggn/L	.	.
.	.	.	8qqaa-/	.	.
.	.	.	8qqggg-X/	.	.
.	.	.	8qqeee-/	.	.
.	.	.	8qqccc/	.	.
.	.	.	8qqaa-/	.	.
.	.	.	8qqbb-/	.	.
.	.	.	8qqee-	.	.
.	.	.	8qqaa-/J	.	.
(>16D-LL	4ryy	.	4.ff)	.	.
16F\	.	.	.	.	.
16A-	.	.	.	.	.
16d-JJ)	.	.	.	.	.
16C\LL)	8rByy	.	.	.	.
16e-JJ 16An 16F	.	.	.	.	.
*v	*v	*	*	*	*
=141	=141	=141	=141	=141
*ped	*	*	*	*
(>16BB-'>LL	.	8ff'>	.	.
16F	.	.	.	.
16B-	.	[>8ff^>L	.	.
16d-	.	.	.	.
*Xped	*	*	*	*
16F	.	(>32ffLL]	.	.
.	.	32gg-	.	.
16B-JJ)	.	32ee-	.	.
.	.	32ffJJJ)	.	.
*ped	*	*	*	*
(>16AA-'>LL	.	8dd-'>	.	.
16F	.	.	.	.
16B-	.	[>8dd-^>L	.	<
16d-	.	.	.	.
*Xped	*	*	*	*
16F	.	(>32dd-LL]	.	.
.	.	32ee-	.	.
16B-JJ)	.	32cc	.	.
.	.	32dd-JJJ)	.	.
=142	=142	=142	=142	=142
*^	*	*	*	*
*ped	*	*	*	*	*
16rByy	16GG-LL'>	.	8b-'>	.	.
4G-	16G-	.	.	.	.
.	16B-	.	[>8bb-^<L	.	.
.	16d-	.	.	.	.
.	16dn	.	32bb-LL]	.	.
.	.	.	(>32ccc	.	.
16reyy	16B-JJ	.	32aa-	.	.
.	.	.	32bb-JJJ	.	.
*Xped	*	*	*	*	*
8e-	4.rGGyy	.	32gg-LLL	.	.
.	.	.	32aa-	.	.
.	.	.	32ff	.	.
.	.	.	32gg-JJJ	.	.
*	*	*	*tuplet	*	*
!	!	!	!LO:TX:a:t=P:note-head-side tuplet number:problem	!	!
8r	.	.	48ee-LLL	.	.
.	.	.	48gg-	.	.
.	.	.	48ffJJJ	.	.
!	!	!	!LO:TX:a:t=P:note-head-side tuplet number:problem	!	!
.	.	.	48dd-XLLL	.	.
.	.	.	48ff	.	.
.	.	.	48ee-JJJ	.	.
*	*	*	*Xtuplet	*	*
8e-^<\ 8G-\	.	.	48ccLLL	.	.
.	.	.	48ee-	.	.
.	.	.	48dd-JJJ	.	.
.	.	.	48b-LLL	.	.
.	.	.	48dd-	.	.
.	.	.	48ccJJJ)	.	.
*v	*v	*	*	*	*
!!LO:LB:g=original
=143	=143	=143	=143	=143
8e- 8F	.	8an	.	.
*	*	*tuplet	*	*
!	!	!LO:TX:a:t=P:note-head-side tuplet number:problem	!	!
8ryy	.	(>(>48gg-LLL 48b-	.	.
.	.	48dd-JJJ)	.	.
.	.	/48bb-	.	.
!	!	!LO:TX:a:t=P:note-head-side tuplet number:problem	!	!
.	.	48ddd-/LLL)	.	.
.	.	48aaa-	.	.
.	.	48ggg-JJJ	.	.
*	*	*Xtuplet	*	*
2ryy	.	(>48ee-LLL 48g-	.	.
.	.	48b-JJJ	.	.
.	.	48gg-/	.	.
.	.	48bb-/LLL	.	.
.	.	48fff	.	.
.	.	48eee-JJJ)	.	.
!	!	!	!	!LO:DY:rj
.	.	(>48cc\LLL 48e-\	.	f
.	.	48g-JJJ	.	.
.	.	48ee-/	.	.
.	.	48gg-/LLL	.	.
.	.	48ddd-	.	.
.	.	48cccJJJ)	.	.
.	.	48g-\LLL 48B-\	.	.
.	.	48e-JJJ	.	.
.	.	48b-/	.	.
.	.	48ee-/LLL	.	.
.	.	48aa-	.	.
.	.	48gg-JJJ	.	.
.	.	(>48e-\LLL 48G-<\	.	.
.	.	48B-<\JJJ	.	.
.	.	48g-/	.	.
.	.	48b-/LLL	.	.
.	.	48ff	.	.
.	.	48ee-JJJ)	.	.
=144	=144	=144	=144	=144
8rGGyy	.	48e-<\LLL 48F<\	.	.
.	.	(>\48c<JJJ	.	.
.	.	48an	.	.
.	.	48cc/LLL	.	.
.	.	48ff	.	.
.	.	48ee-JJJ)	.	.
8rGGyy	.	(>48g-\LLL 48B-\	.	.
.	.	48e-JJJ	.	.
.	.	48b-/	.	f
.	.	48ee-/LLL	.	.
.	.	48aa-	.	.
.	.	48gg-JJJ)	.	.
8rGGyy	.	(>48g-\LLL 48G-<\	.	.
.	.	48B-<\JJJ	.	.
.	.	48g-	.	.
.	.	48b-/LLL	.	.
.	.	48ff	.	.
.	.	(>48ee-JJJ)	.	.
4ryy	.	48c<\LLL 48E-<\	.	.
.	.	48G-<\JJJ	.	.
.	.	48e-	.	.
.	.	48g-/LLL	.	.
.	.	48dd-	.	.
.	.	(>48ccJJJ)	.	.
.	.	48G-<\LLL 48BB-<\	.	.
.	.	48E-<\JJJ	.	.
.	.	48B-	.	.
.	.	48e-LLL	.	.
.	.	48a-X	.	.
.	.	(>48g-JJJ)	.	.
16ryy	.	48E-<\LLL 48GG-<\	.	.
.	.	48BB-<\JJJ	.	.
.	.	48G-<	.	.
16B-	.	48B-<LLL	.	.
.	.	48f	.	.
.	.	[48e-JJJ)	.	.
!!LO:LB:g=original
=145	=145	=145	=145	=145
*ped	*	*	*	*
8FF'</ 8FFF/	.	(>8e-] 8An<	.	.
*	*	*tuplet	*	*
!	!	!LO:TX:a:t=P:note-head-side tuplet number:problem	!	!
8ryy	.	48e-\LLL	.	.
.	.	48g-JJJ	.	.
.	.	48en	.	p
*	*	*Xtuplet	*	*
.	.	48fLLL	.	.
.	.	48cc	.	.
.	.	48anJJJ)	.	.
2ryy	.	(>48e-X\LLL	.	.
.	.	48g-JJJ	.	.
.	.	48en/	.	>
.	.	48fLLL	.	.
.	.	48cc	.	.
.	.	48aJJJ)	.	.
.	.	(>\48e-XLLL	.	.
.	.	48g-JJJ	.	.
.	.	48en	.	.
.	.	48fLLL	.	.
.	.	48cc	.	.
.	.	48aJJJ)	.	.
.	.	(>48d-X\LLL	.	.
.	.	48g-JJJ	.	.
.	.	48en	.	.
.	.	48fLLL	.	.
.	.	48cc	.	.
.	.	48aJJJ)	.	.
.	.	(>48c\LLL	.	.
.	.	48g-JJJ	.	.
.	.	48e	.	.
.	.	48fLLL	.	.
.	.	48cc	.	.
*Xped	*	*	*	*
.	.	48aJJJ)	.	.
!!LO:LB:g=original
=146	=146	=146	=146	=146
*ped	*	*	*	*
2.ryy	.	(>48F<\LLL	.	.
.	.	48g-\JJJ	.	.
.	.	48en	.	.
.	.	48fLLL	.	.
.	.	48cc	.	.
.	.	48anJJJ)	.	.
!	!	!LO:TX:a:t=rall.	!	!
.	.	(>48e-X\LLL	.	.
.	.	48gnJJJ	.	.
!	!	!LO:TX:t=sempre	!	!
.	.	48en	.	.
.	.	48fLLL	.	.
.	.	48cc	.	.
.	.	48aJJJ)	.	.
.	.	(>48e-X\LLL	.	.
.	.	48gJJJ	.	.
.	.	48en	.	.
.	.	48fLLL	.	.
.	.	48cc	.	.
.	.	48aJJJ)	.	.
.	.	(>48e-X\LLL	.	.
.	.	48gJJJ	.	.
.	.	48en	.	.
.	.	48fLLL	.	>
.	.	48cc	.	.
.	.	48aJJJ)	.	.
.	.	(>48dn\LLL	.	.
.	.	48gJJJ	.	.
.	.	48e	.	.
.	.	48fLLL	.	.
.	.	48cc	.	.
.	.	48aJJJ)	.	pp
.	.	(>48c\LLL	.	.
.	.	48gJJJ	.	.
.	.	48en	.	.
.	.	48fLLL	.	.
.	.	48cc	.	.
*Xped	*	*	*	*
!	!	!LO:TX:a:t=P:zmiana znaków przykluczowych za kreską taktową; i w odwrotnej kolejności: najpierw kasowniki, potem bemole:problem	!	!
.	.	48anJJJ)	.	.
*kcancel	*	*kcancel	*	*
!!LO:LB:g=original
=147||	=147||	=147||	=147||	=147||
*k[b-e-]	*	*k[b-e-]	*	*
*^	*	*	*	*
*	*	*	*tuplet	*	*
!	!	!	!LO:TX:a:t=P:note-head-side tuplet number:problem	!	!
!	!	!	!LO:TX:a:B:t=Scherzo vivace. [quarter].= 88.	!	!LO:DY:rj
8rGyy	(>\8BB-L	.	(>24gLL	.	pp
.	.	.	24b-	.	.
.	.	.	24ddJ)	.	.
*ped	*	*	*	*	*
8ryy	8e-	.	8cc'>J	.	.
4.F/	8FJ	.	8a'<	.	.
*Xped	*	*	*	*	*
.	8BB-\L)	.	8f'<	.	.
.	(>8d	.	4ff^<	.	.
*ped	*	*	*	*	*
!LO:N:vis=4.	!	!	!	!	!
8F/	8FJ	.	.	.	.
=148	=148	=148	=148	=148	=148
!	!	!	!LO:TX:a:t=P:note-head-side tuplet number:problem	!	!
8rAyy	8BB-L)	.	(>24ccLL	.	.
.	.	.	24dd	.	.
*Xped	*	*	*	*	*
.	.	.	24ccJJ)	.	.
*	*	*	*Xtuplet	*	*
!	!LO:N:vis=4.	!	!	!	!
4.F	(>8F	.	8ff'>L	.	.
*ped	*	*	*	*	*
.	8e-J	.	8g'>J	.	.
.	8BB-L)	.	8f	.	.
*Xped	*	*	*	*	*
.	.	.	.	.	.
8ryy	(>8d	.	[4ff^<	.	.
*ped	*	*	*	*	*
!LO:N:vis=4	!	!	!	!	!
[8F/	8FJ	.	.	.	.
*v	*v	*	*	*	*
=149	=149	=149	=149	=149
*Xped	*	*	*	*
8a 8e-)	.	(>16ffLL]	.	.
.	.	16aa	.	.
8r	.	16gg	.	.
.	.	16ffJ)	.	>
*clefG2	*	*	*	*
(<8cc/L 8f/	.	(>8eee-J 8aa	.	.
8ddJ 8b-)	.	16dddLL	.	.
.	.	16bb-	.	]
4r	.	16ff	.	.
.	.	16ddJ	.	.
.	.	8b-J)	.	.
*clefF4	*	*	*	*
=150	=150	=150	=150	=150
8C	.	(>16bnLL	.	.
.	.	16dd	.	.
8r	.	16dd-X	.	.
.	.	16ccJ	.	.
*clefG2	*	*	*	*
(<8g/L 8c/	.	8bb-XJ) 8een^<	.	.
8aJ 8f)	.	(>16aaLL	.	.
.	.	16ff	.	.
4r	.	16cc	.	.
.	.	16aJ	.	.
.	.	8f'>J)	.	.
=151	=151	=151	=151	=151
*^	*	*	*	*
*	*	*	*tuplet	*	*
!	!	!	!LO:TX:a:t=P:note-head-side tuplet number:problem	!	!
4ryy	(>\8B-L	.	(>24ggLL	.	pp
.	.	.	24bb-	.	.
*ped	*	*	*	*	*
.	.	.	24dddJ)	.	.
*	*	*	*Xtuplet	*	*
.	8ee-	.	8cccJ'>	.	.
4.f/	8fJ	.	8aa'>	.	.
*Xped	*	*	*	*	*
.	8B-\L)	.	8ff'>	.	.
.	(>8dd	.	4fff^<	.	.
*ped	*	*	*	*	*
!LO:N:vis=4.	!	!	!	!	!
8f/	8fJ	.	.	.	.
!!LO:PB:g=original
=152	=152	=152	=152	=152	=152
4rffyy	8B-L)	.	(>24cccLL	.	.
!	!	!	!LO:TX:t=delicatiss.	!	!
!	!	!	!LO:TX:t=poco rall.	!	!
.	.	.	24ddd	.	.
*Xped	*	*	*	*	*
.	.	.	24cccJJ	.	.
.	(>8ee-	.	24fffLL	.	.
*ped	*	*	*	*	*
.	.	.	24ccc	.	.
.	.	.	24aaJJ	.	.
4.f	8fJ	.	24ggLL	.	.
.	.	.	24aa	.	.
.	.	.	24ggJJ	.	.
.	8B-)	.	8ff	.	.
*ped	*	*	*	*	*
.	4dd/	.	(>4fff^<)	.	.
8raayy	.	.	.	.	.
*v	*v	*	*	*	*
=153	=153	=153	=153	=153
*clefF4	*	*	*	*
!	!	!LO:TX:t=a Tempo	!	!
!	!	!LO:TX:t=dolciss.	!	!
*	*	*8va	*	*
8BB-'>L	.	(>8ffff)	.	.
(>8d 8F	.	16ddddLL)	.	.
.	.	16cccc	1	.
8fJ 8B-	.	16bbb-	4	.
.	.	16gggJJ	.	.
*clefG2	*	*	*	*
4b-) 4d	.	16fffLL	1	.
.	.	16ddd	2	.
.	.	16ccc	1	.
.	.	16bb-	4	.
*	*	*X8va	*	*
!	!	!LO:TX:a:t=loco	!	!
8r	.	16gg	.	.
.	.	16ffJJ)	.	.
*clefF4	*	*	*	*
=154	=154	=154	=154	=154
*Xped	*	*	*	*
8f 8d 8F	.	(>16ee-LL	3	.
.	.	16dd	.	.
8r	.	16cc	1	.
.	.	16b-	2	.
8fL 8e- 8F	.	16dd^< 16a	4	.
.	.	16ccJJ	.	.
8fJ 8d 8B-	.	8b-)	1	.
8r	.	8r	.	.
!LO:TX:t=P:cross-measure beam:problem	!	!LO:TX:t=P:cross-measure beam:problem	!	!
8d 8D	.	8ddd 8ff#X 8dd 8cc	.	ff
=155	=155	=155	=155	=155
8G\ 8GG\	.	8ggg 8bb- 8gg	.	.
16r	.	16r	.	.
16dKL 16G	.	(>16ddKL 16b- 16g	.	.
8e-J 8c	.	8ee-^J 8cc 8g	.	.
8dL 8G	.	8dd'>L) 8b- 8g	.	.
16r	.	16r	.	.
16e-k 16E-	.	(>16ggk 16cc 16g	.	<
8dJ 8D	.	8ff#XJ) 8dd 8a	.	.
!!LO:LB:g=original
=156	=156	=156	=156	=156
8G'< 8GG	.	8bb-'> 8gg 8dd 8b-	.	.
*ped	*	*	*	*
(>8B-L	.	16r	.	[
.	.	(>16gLL	1	.
8DJ	.	16gg 16b-	5	.
.	.	16ggJJ	1	.
8GG)	.	8ggg'>) 8bb-	.	.
8r	.	8r	.	.
*Xped	*	*	*	*
8r	.	8r	.	.
=157	=157	=157	=157	=157
8AL 8AA	.	8ff'>L 8a	.	p
16r	.	16r	.	.
(>16Ak	.	(>16eenk 16g	.	.
8AJ	.	8ddJ 8f	.	.
8A'>L)	.	8ee'>L) 8g	.	.
16r	.	16r	.	.
(>16Ak	.	(>16ffk 16a	.	.
8AJ)	.	8cc#XJ 8en	.	.
=158	=158	=158	=158	=158
8D	.	8dd\) 8f\	.	.
*ped	*	*	*	*
(>8FL	.	16r	.	.
.	.	(>16ddLL	.	f
8AAJ	.	16ddd 16ff	.	.
.	.	16ddJJ	.	.
*	*	*8va	*	*
8DD)	.	8dddd) 8fff	.	.
*	*	*X8va	*	*
8r	.	8r	.	.
*Xped	*	*	*	*
!	!	!LO:TX:a:t=loco	!	!
8r	.	(>8aa	.	.
=159	=159	=159	=159	=159
!	!	!LO:TX:t=dol	!	!
(>8D'L	.	8fff)	.	.
8A	.	(>16gggLL	.	.
.	.	16fff	.	.
8dJ) 8F	.	16eeen	.	.
.	.	16fffJJ	.	.
(>8C#X'>L	.	8aaa'>)	.	.
8A	.	4eee^^>	.	.
8enJ) 8G	.	.	.	.
=160	=160	=160	=160	=160
(>8D'>L	.	(>8fff'>	.	.
8A	.	16gggLL	.	.
.	.	16fff	.	.
8dJ) 8F	.	16eeen	.	.
.	.	16dddJJ	.	.
(>8AA'>L	.	8eee'>)	.	.
8A	.	4aa^^>	.	.
8c#XJ) 8G	.	.	.	.
!!LO:LB:g=original
=161	=161	=161	=161	=161
*	*	*tuplet	*	*
!	!	!LO:TX:a:t=P:note-head-side tuplet number:problem	!	!
(>8D'>L	.	(>24ffLL	.	.
.	.	24gg	.	.
.	.	24ff)	.	.
*	*	*Xtuplet	*	*
8A	.	(>16een	.	.
.	.	16ff	.	.
8dJ) 8F	.	16ccc	.	.
.	.	16bb-JJ)	.	.
(>8C#X'>L	.	8aa'>	.	.
8A	.	(>4ee^^>	.	.
8enJ) 8G	.	.	.	.
=162	=162	=162	=162	=162
(>8D'>L	.	8ff'>)	.	.
8A	.	(>16ggLL	.	>
.	.	16ff	.	.
8dJ) 8F	.	16eent	.	]
.	.	16ddJJ)	.	.
(>8CnL	.	8ee'>	.	.
8En	.	(>4a^	.	.
8e-J) 8A	.	.	.	.
=163	=163	=163	=163	=163
(>8BB-L	.	8dd)	.	.
8En	.	(>16f#XLL	.	.
.	.	16g	.	.
8dJ) 8G	.	16een	.	.
.	.	16ddJJ	.	.
(>8AA'>L	.	8cc)	.	.
8F	.	4fn^	.	.
8cJ)	.	.	.	.
=164	=164	=164	=164	=164
(>8GG'>\L	.	8b-	.	.
8C#X	.	16d#XLL	.	.
.	.	16en	.	.
*	*	*tuplet	*	*
!	!	!LO:TX:a:t=P:note-head-side tuplet number:problem	!	!
8B-J 8E-)	.	(<24cc	.	.
.	.	24b-	.	.
.	.	24aJJ)	.	.
*	*	*Xtuplet	*	*
(>8FF'>\L	.	8a	.	.
8D	.	(>4dn^<	.	.
8AJ)	.	.	.	.
!!LO:LB:g=original
=165	=165	=165	=165	=165
(>8BB-L	.	8dd	.	.
8En	.	16ggLL	.	>
.	.	16ff	.	.
8dJ) 8G	.	16een	.	.
.	.	16ddJJ)	.	]
(>8AAL	.	8dd'>	.	.
8F	.	[4cc^<	.	.
8cJ)	.	.	.	.
=166	=166	=166	=166	=166
(>8GG\L	.	(>16ccLL]	.	.
.	.	16b-	.	.
8C#X	.	16een	.	.
.	.	16dd	.	.
8B-J) 8En	.	16cc#X	.	.
.	.	16b-JJ	.	.
(>8FF\L	.	8b-'>)	.	.
8D	.	8a'<	.	.
8AJ)	.	[8d^>	.	.
=167	=167	=167	=167	=167
(>8BB-^L	.	(>16dLL]	.	.
.	.	16g	.	.
8En	.	16b-	.	.
.	.	16dd	.	.
8dJ 8G)	.	16gg	.	.
.	.	16dddJJ	.	.
(>8AAL	.	16ccc#XLL	.	<
.	.	16aa	.	.
8E	.	16een	.	.
.	.	16cc#	.	.
8c#XJ 8G)	.	16a	.	.
.	.	16enyJJ)	1	.
=168	=168	=168	=168	=168
*^	*	*	*	*
(>4D	8DL	.	(>16fLL	1	.
.	.	.	16b-	.	.
.	8F	.	16dd	.	.
.	.	.	16ff	.	.
4B-)	8B-J	.	16bb-	.	.
.	.	.	16fffJJ	.	.
.	(>8C#XL	.	16eeenLL	.	.
.	.	.	16ccc#X	.	.
4ryy	8Eny	.	16aa	.	.
.	.	.	16een	.	.
.	8AJ)	.	16cc	.	.
.	.	.	16aJJ)	.	.
*v	*v	*	*	*	*
!!LO:LB:g=original
=169	=169	=169	=169	=169
8f 8d	.	(>16b-LL	.	f
.	.	16dd	.	.
8r	.	16ff	.	.
.	.	16bb-	.	.
*clefG2	*	*8va	*	*
(>8ffL 8dd	.	16bb-	1	>
.	.	16bbb-JJ	.	]
8eenJ 8cc#X)	.	16ddd#XLL	.	.
.	.	16eeen	.	.
8r	.	16aaa	.	.
.	.	16aa	.	.
!LO:TX:t=P:cross-measure beam:problem	!	!	!	!
(>8ff#X^< 8ccn	.	16eee-X	.	.
.	.	16aaa-XJJ	.	.
=170	=170	=170	=170	=170
8gg 8bn)	.	16ccc#XLL	.	<
.	.	16ddd	.	.
8r	.	16ggg	.	.
.	.	16gg	.	.
(>8een^<L 8b-X	.	16ddd-X	.	.
.	.	16ggg-XJJ	.	.
8ffJ 8a)	.	16bbn\LL	.	.
.	.	16cccn	.	.
4r	.	16fff	.	.
.	.	16ff	.	.
.	.	16aa	.	.
.	.	16ggJJ	.	.
=171	=171	=171	=171	=171
*^	*	*	*	*
4B-	(>8B-L	.	8ff)	.	.
*	*	*	*X8va	*	*
!	!	!	!LO:TX:a:t=loco	!	!
.	8aJ) 8e-	.	(>16gg#XLL	3	.
.	.	.	16aa	.	.
8r	8rdyy	.	16ff#X	.	.
!	!	!	!LO:TX:a:t=leggiero	!	!
.	.	.	16ggnJJ	.	.
4B-	(>8B-L	.	16eenLL	.	.
.	.	.	16ffn	.	.
.	8b-J) 8d	.	16gg#X	.	.
.	.	.	16aa	1	.
8r	8rdyy	.	16ccc	.	.
.	.	.	16bb-JJ)	.	.
!!LO:LB:g=original
=172	=172	=172	=172	=172	=172
4B-	(>8B-L	.	(>16bbnLL	1	.
.	.	.	16ccc	.	.
.	8aJ) 8e-	.	16ccc#X	.	.
.	.	.	16ddd	.	.
8r	8reyy	.	16bb	.	.
.	.	.	16cccnJJ	.	.
(>4B-	8B-L	.	16aaLL	.	.
.	.	.	16bb-X	.	.
.	8b-J) 8d	.	16ccc#X	.	.
.	.	.	16ddd	.	.
8r	8reyy	.	16ggg	4	.
.	.	.	16fffJJ)	2	.
*v	*v	*	*	*	*
=173	=173	=173	=173	=173
*ped	*	*8va	*	*
8F	.	(>16fffLL	.	.
.	.	16aaa	.	.
8r	.	16ggg	.	.
.	.	16fff	.	.
(>8ee-L 8cc 8f	.	16aaa	.	.
*Xped	*	*	*	*
.	.	16eeee-JJ	.	.
8ddJ 8b-)	.	16ddddLL	.	.
.	.	16aaa	.	.
8r	.	16bbb-	.	.
.	.	16fff	.	.
!LO:TX:t=P:cross-measure beam:problem	!	!	!	!
(<8B-	.	16ddd	.	.
.	.	16bb-JJ)	.	.
=174	=174	=174	=174	=174
*ped	*	*	*	*
8c)	.	(>16bbnLL	.	.
.	.	16ddd	.	.
8r	.	16ddd-X	.	.
.	.	16ccc	.	.
(>8eenL 8b- 8g	.	16eeen	.	.
*Xped	*	*	*	*
.	.	16bbb-XJJ	.	.
8ffJ 8a 8f)	.	16aaaLL	.	.
.	.	16eeen	.	.
4r	.	16fff	.	.
.	.	16ccc	.	.
.	.	16aa	.	.
.	.	16ffJJ)	.	.
*clefF4	*	*X8va	*	*
!!LO:PB:g=original
=175	=175	=175	=175	=175
!	!	!LO:TX:t=Scherz.	!	!
!	!	!LO:TX:a:t=loco	!	!
8BB-'>L	.	(>16ff#XLL	.	.
.	.	16ggJJ)	.	.
8e-'> 8F	.	(>16gg#XLL	.	.
.	.	16aaJJ)	.	.
8BB-'>J	.	(>16ff#LL	.	.
.	.	16ggnJJ)	.	.
8d'>L 8F	.	(>16eenLL	.	.
.	.	16ffnJJ)	.	.
8BB-'>	.	(>16gg#XLL	.	.
.	.	16aaJJ)	.	.
8d'>J 8F	.	(>16cccLL	.	.
.	.	16bb-JJ)	.	.
=176	=176	=176	=176	=176
8BB-'>L	.	(>16bbnLL	.	.
.	.	16cccJJ)	.	.
8e-'> 8F	.	(>16ccc#XLL	.	.
.	.	16dddJJ)	.	.
8BB-'>J	.	(>16bbLL	.	.
.	.	16cccnJJ)	.	.
8d 8F	.	(>16aaLL	.	.
.	.	16ccc)	.	.
8r	.	16bb	.	.
*	*	*8va	*	*
.	.	16bb-X	1	f>
*clefG2	*	*	*	*
!LO:TX:t=P:cross-measure beam:problem	!	!	!	!
(<8b- 8f#X 8d	.	16bbb-y	.	.
.	.	16fff#XJJ	.	]
=177	=177	=177	=177	=177
8b- 8g 8e-)	.	16ggLL	.	.
.	.	16ggg	.	.
8r	.	16eee-	.	.
.	.	16gg	.	.
(<8g^>L 8d 8Bn	.	16ggg	.	.
.	.	16dddJJ	.	.
8gJ 8e- 8c)	.	16ggLL	.	.
.	.	16eee-	.	.
8r	.	16ccc	.	.
.	.	16bb-	.	.
!LO:TX:t=P:cross-measure beam:problem	!	!	!	!
(<8b-^> 8f#X 8d	.	16bbb-	.	.
.	.	16fff#XJJ	.	.
=178	=178	=178	=178	=178
8b- 8g 8e-)	.	16ggLL	.	.
.	.	16ggg	.	.
8r	.	16eee-	.	.
.	.	16gg	.	.
(<8gL 8d 8Bn	.	16ggg	.	<
.	.	16dddJJ	.	.
8gJ 8e- 8c)	.	16ggLL	.	.
.	.	16eee-	.	.
8r	.	16ccc	.	.
.	.	16bb-	.	.
(<8b- 8f#X 8d	.	16bbb-	.	.
.	.	16fff#XJJ	.	.
!!LO:LB:g=original
=179	=179	=179	=179	=179
8b- 8g 8e-)	.	16bb-LL	.	.
.	.	16bbb-	.	.
8r	.	16ggg	.	.
.	.	16bbn	.	.
8bn'<L 8g 8e-	.	16bbbn	.	.
.	.	16gggJJ	.	.
8b'<J 8g 8e-	.	16bbLL	.	.
.	.	16bbb	.	.
8r	.	16ggg	.	.
.	.	16bb	.	.
!LO:TX:t=P:cross-measure beam:problem	!	!	!	!
8b'< 8g 8en	.	16bbb	.	.
.	.	16gggJJ	.	.
=180	=180	=180	=180	=180
8bn'< 8g 8en	.	16bbnLL	.	.
.	.	16bbbn	.	.
8r	.	16ggg	.	.
.	.	16bb	.	.
8eeny'<L 8b 8g 8eny	.	16bbb	.	.
.	.	16gggJJ	.	.
8ee'<J 8b 8g 8e	.	16bbLL	.	.
.	.	16bbb	.	.
8r	.	16ggg	.	.
.	.	16ccc	.	.
!LO:TX:t=P:cross-measure beam:problem	!	!	!	!
8ee'< 8cc 8g 8e	.	16cccc	.	.
.	.	16gggJJ	.	.
=181	=181	=181	=181	=181
8een 8cc#X 8b-X 8g 8en	.	8cccc#X 8ccc#X	.	sf
*	*	*X8va	*	*
!	!	!LO:TX:a:t=loco	!	!
8r	.	8r	.	.
8r	.	8r	.	.
*8va	*	*	*	*
8dddd-XL 8eeen	.	(>16bb-LL	.	.
.	.	16ggg	.	.
!	!	!LO:TX:t=de-_:dur=1q:ext=ud:problem:text with extention lines	!	!
8rbb	.	16bb-	.	.
.	.	16aa	.	.
8ccccJ 8eee-X	.	16fff#X	.	.
.	.	16aaJJ	.	.
=182	=182	=182	=182	=182
8bbbnL 8ddd	.	16aa-XLL	.	.
.	.	16fffn	.	.
!	!	!LO:TX:t=cresc_:problem:dynamics with extention lines 	!	!LO:HP:t=cresc:ext=ud
8rbb	.	16aa-	.	<
.	.	16gg	.	.
(>8bbb-XJ 8ddd-X	.	16eeen	.	.
.	.	16ggJJ	.	.
8aaaL 8ccc)	.	16gg-XLL	.	.
.	.	16eee-X	.	.
8r	.	16gg-	.	.
.	.	16ff	.	.
(>8aaa-XJ 8bbn	.	16ddd	.	.
.	.	16ffJJ	.	[
!!LO:LB:g=original
=183	=183	=183	=183	=183
8gggL 8bb-X)	.	16eenLL	.	.
.	.	16ddd-X	.	.
8r	.	16ee	.	.
.	.	16ee-X	.	.
(>8ggg-XJ 8aan	.	16ccc	.	.
.	.	16ee-JJ	.	.
8fffL 8aa-X)	.	16ddLL	.	.
.	.	16bbn	.	.
8r	.	16dd	.	.
.	.	16dd-X	.	.
(>8eeenJ 8gg	.	16bb-X	.	.
.	.	16dd-JJ	.	.
=184	=184	=184	=184	=184
8eee-X 8gg-X)	.	8aa) 8cc	.	.
*X8va	*	*	*	*
8r	.	8r	.	.
8r	.	8r	.	.
*clefF4	*	*	*	*
!	!	!LO:TX:t=loco	!	!
(<4.F 4.FF	.	(>4.ff 4.ee- 4.a	.	f
=185	=185	=185	=185	=185
*^	*	*	*	*
8BB- 8BBB-)	4.rAyy	.	8bb-) 8dd 8b-	.	.
8r	.	.	(<16dLL	.	p
!	!	!	!LO:TX:a:t=leggiero	!	!
.	.	.	16e-	.	.
8r	.	.	16en	.	.
.	.	.	16fJJ	.	.
4BBn	(>8BBnL	.	(<8a-X)	.	.
.	8A-XJ)	.	16a-LL	.	.
.	.	.	16d	.	.
8r	8rGG	.	16g	.	.
.	.	.	16fJJ)	.	.
*v	*v	*	*	*	*
=186	=186	=186	=186	=186
(>8CL	.	(>16e-LL	.	.
.	.	16g	.	.
8e-J 8G)	.	16cc	.	.
.	.	16ee-	.	<
8r	.	16gg	.	.
.	.	16ddJJ	.	[
(>8FF\L	.	16ffLL	.	.
.	.	16ee-	.	>
8AJ) 8E-	.	16cc	.	.
.	.	16a	.	]
8r	.	16f	.	.
.	.	16e-JJ)	.	.
=187	=187	=187	=187	=187
8B-'> 8BB-	.	8d	.	.
8r	.	(>16ddLL	.	.
.	.	16ee-	.	.
*clefG2	*	*	*	*
!LO:TX:t=P:diminuendolike accent:problem	!	!	!	!
(<8a-X^>L 8Bn	.	16ff	.	.
.	.	16ggJJ)	.	.
8gJ 8c)	.	(>16ffLL	.	.
.	.	16een	.	.
8r	.	16cc	.	.
.	.	16dd	.	.
(<8g-X^> 8An	.	16ee-X	.	.
.	.	16ffJJ	.	.
!!LO:LB:g=original
=188	=188	=188	=188	=188
*^	*	*	*	*
8f 8B-)	4rEyy	.	16ee-LL	.	.
.	.	.	16dd)	.	.
8r	.	.	(>16b-	.	.
.	.	.	16cc	.	.
!LO:TX:a:t=P:diminuendolike accent:problem	!	!	!	!	!LO:DY:a
8en^>	4.B- 4.G-X	.	16dd-X	.	.
.	.	.	16ee-JJ	.	.
4.e-X	.	.	16dd-LL	.	.
.	.	.	16cc	.	.
.	.	.	16bn	.	.
.	.	.	16cc)	.	.
.	(<8A 8F/	.	(>16ff	.	.
.	.	.	16ee-JJ	.	.
=189	=189	=189	=189	=189	=189
8d 8B-/)	8rddyy	.	16ddLL	.	.
.	.	.	16ee-	.	.
8r	4ryy	.	16cc#X	.	<
.	.	.	16dd	.	.
8r	.	.	16ee-	.	.
.	.	.	16eenJJ	.	.
4Bn	(>8BnL	.	16ffLL	.	.
.	.	.	16ff#X	.	.
.	8a-XJ) 8d	.	16aa-X	.	.
.	.	.	16dd	.	.
8r	8rdyy	.	16gg	.	.
.	.	.	16ffnJJ	.	.
=190	=190	=190	=190	=190	=190
4c	(>8cL	.	16ee-LL	.	.
.	.	.	16gg	.	.
.	8gJ) 8e-	.	16ccc	.	[
.	.	.	16eee-	.	.
8r	8reyy	.	16ggg	.	.
.	.	.	16dddJJ	.	.
4F	(>8FL	.	16fffLL	.	.
.	.	.	16eee-	.	.
.	8anJ 8e-)	.	16ccc	.	.
.	.	.	16aa	.	.
8r	8reyy	.	16ff	.	.
.	.	.	16ee-JJ^<	.	.
*v	*v	*	*	*	*
=191	=191	=191	=191	=191
8b-' 8B-	.	16ddLL)	.	.
.	.	(>16ff	.	.
8r	.	16bb-	.	.
.	.	16ddd	.	.
(>8aa-XL 8bn	.	16fff	.	.
.	.	16gggJJ^<	.	.
8ggJ 8cc)	.	16fffLL	.	.
.	.	16eeen	.	.
8r	.	(>16ccc)	.	.
.	.	16ddd	.	.
(>8gg-X 8an	.	16eee-X^<	.	.
.	.	16fffJJ	.	.
!!LO:LB:g=original
=192	=192	=192	=192	=192
*^	*	*	*	*
8rccc)yy	8ff 8b-	.	16eee-LL	.	.
.	.	.	16ddd)	.	.
8rb	8ryy	.	(>16bb-	.	.
.	.	.	16ccc	.	.
8een	4.b- 4.g-X	.	16ddd-X	.	>
.	.	.	16eee-JJ	.	.
4.ee-X	.	.	16ddd-LL	.	.
.	.	.	16ccc)	.	]
.	.	.	(>16bbn	.	.
.	.	.	16ccc	.	.
.	8a 8f	.	16fff	.	.
.	.	.	16eee-JJ)	.	.
*v	*v	*	*	*	*
=193	=193	=193	=193	=193
*ped	*	*8va	*	*
8dd-X 8b- 8g-X	.	(>16ddd-XLL	2	f
.	.	16bbb-	.	.
8r	.	16ggg-X	.	.
.	.	16bb-	1	.
8r	.	16gg-y	2	.
.	.	16ddd-JJ	.	.
*	*	*X8va	*	*
!	!	!LO:TX:a:t=loco	!	!
4r	.	16bb-LL	.	.
.	.	16dd-	.	.
.	.	16b-	2	.
.	.	16gg-	.	.
*Xped	*	*	*	*
8r	.	16dd-	.	.
.	.	16g-XJJ	1	.
*clefF4	*	*	*	*
=194	=194	=194	=194	=194
*^	*	*	*	*
*ped	*	*	*	*	*
4.rAyy	(>8DD-X'>L	.	16fLL	1	<
.	.	.	16cc-X	.	.
.	8c-X	.	16dd-X	.	.
.	.	.	16ff	.	.
.	8FJ	.	16ccc-y	.	.
.	.	.	16ddd-yJJ	.	.
*	*	*	*8va	*	*
4.D-X	8D-XL	4	16eee-LL	.	.
.	.	.	16ddd-	.	.
.	8d-X	.	16cccn	1	.
.	.	.	16ddd-	.	.
.	8D-J)	.	16ggg-X	.	.
*Xped	*	*	*	*	*
.	.	.	16aaaJJ)	.	[
*v	*v	*	*	*	*
=195	=195	=195	=195	=195
*ped	*	*	*	*
!LO:TX:a:t=P:mixed beam:problem	!	!	!	!
(>8GG-X/L	.	(>16ddd-XLL	.	>
.	.	16bbb-	.	.
8B-\	.	16ggg-X	.	.
.	.	16bb-	.	.
8G-X\J	.	16gg-X	.	.
.	.	16ddd-JJ	.	.
*	*	*X8va	*	*
!	!	!LO:TX:a:t=loco	!	!
8D-XL	.	16bb-LL	.	.
.	.	16dd-	.	.
8d-y	.	16b-	.	.
.	.	16gg-	.	.
8D-J)	.	16dd-	.	.
*Xped	*	*	*	*
.	.	16g-JJ)	.	]
!!LO:LB:g=original
=196	=196	=196	=196	=196
*ped	*	*	*	*
!LO:TX:a:t=P:mixed beam:problem	!	!	!	!
(>/8DD-X'>L	.	(>16fLL	.	<
.	.	16cc-X	.	.
8c-X\	.	16dd-X	.	.
.	.	16ff	.	.
8F\J	.	16ccc-y	.	.
.	.	16ddd-yJJ	.	.
*	*	*8va	*	*
8D-XL	.	16eee-LL	.	.
.	.	16ddd-	.	.
8d-X	.	16cccn	.	.
.	.	16ddd-	.	.
*Xped	*	*	*	*
8D-J)	.	16ggg-X	.	.
.	.	16aaaJJ	.	[
=197	=197	=197	=197	=197
*ped	*	*	*	*
(>8GG-X'>L	.	16ddd-XLL	.	[
.	.	16bbb-	.	.
8B-	.	16ggg-X	.	.
.	.	16bb-	.	.
8G-XJ	.	16gg-X	.	.
.	.	16ddd-JJ	.	.
*	*	*X8va	*	*
!	!	!LO:TX:a:t=loco	!	!
8D-XL	.	16bb-LL	.	<
.	.	16dd-	.	.
*Xped	*	*	*	*
8d-yJ)	.	16b-	.	.
.	.	16gg-	.	.
8r	.	16dd-	.	.
.	.	16g-JJ)	.	.
=198	=198	=198	=198	=198
*ped	*	*	*	*
(>8BB-L	.	(>16b-\LL	.	.
.	.	16ff	.	.
8d-XJ 8F)	.	16dd-X	.	.
.	.	16f	.	.
8r	.	16B-	.	.
.	.	16fJJ	.	.
4rEE	.	16d-y<LL	.	.
.	.	16F<	.	.
.	.	16BB-<	.	.
.	.	16F<	.	.
*Xped	*	*	*	*
8rEE	.	16D-y<	.	.
.	.	16BB-<JJ)	.	.
=199	=199	=199	=199	=199
*ped	*	*	*	*
!	!	!LO:TX:a:t=con fuoco	!	!
8GG'>\ 8GGG\	.	8rA<	.	.
8rEE	.	8En<'>L	.	.
8rEE	.	8en<'>J 8d-X< 8B-<	.	.
4r	.	8en'\L	.	.
.	.	8een'J 8dd-X 8b-	.	.
*Xped	*	*	*	*
8en'> 8d-X 8G	.	8eeen' 8ddd-X 8bb- 8ee	.	.
!!LO:PB:g=original
=200	=200	=200	=200	=200
8e-'>L 8c 8A	.	8fff'L 8eee- 8ccc 8ff	.	.
8g-X'> 8e- 8B-	.	8ggg-X' 8eee- 8ccc 8gg-X	.	.
8f'>J 8e- 8A	.	8fff'J 8eee- 8ccc 8ff	.	.
8g-'>L 8e- 8B-	.	8ggg-'L 8eee- 8ccc 8gg-	.	ff
16f'>Jk 16e- 16A	.	16fff'Jk 16eee- 16ccc 16ff	.	.
16r;	.	16r;	.	.
8r	.	8ff'	.	.
=201	=201	=201	=201	=201
*	*	*^	*	*
*ped	*	*	*	*	*
!	!	!	!LO:TX:t=P:diminuendolike accent:problem	!	!
8BB-L	.	4gg	16ee-^<LL	.	.
.	.	.	(>16ff	.	.
(>8e-	.	.	16dd	.	.
.	.	.	16ee-J)	.	.
*Xped	*	*	*	*	*
8FJ)	.	8aa	8ccJ	.	.
!	!	!	!LO:TX:t=P:diminuendolike accent:problem	!	!
8BB-'>L	.	4ff	16dd^<LL	.	.
.	.	.	(>16ee-	.	.
(>8d	.	.	16cc	.	.
.	.	.	16ddJ)	.	.
8FJ)	.	8bb-	8b-J	.	.
=202	=202	=202	=202	=202	=202
*ped	*	*	*	*	*
!	!	!	!LO:TX:t=P:diminuendolike accent:problem	!	!
8FF'>L	.	4ccc	16aa^<LL	.	.
.	.	.	(>16bb-	.	.
(>8e-	.	.	16gg	.	.
.	.	.	16aaJ)	.	.
*Xped	*	*	*	*	*
8FJ)	.	8ddd	8ffJ	.	.
!	!	!	!LO:TX:t=P:diminuendolike accent:problem	!	!
8BB-L	.	4.rbbbyy	(>16dd^<LL	.	.
!	!	!	!LO:TX:t=sempre	!	!
.	.	.	16bb-	.	.
(>8d	.	.	16ccc	.	.
.	.	.	16bb-J	.	.
8A-XJ)	.	.	8fff'J)	.	.
*	*	*v	*v	*	*
=203	=203	=203	=203	=203
*	*	*8va	*	*
!	!	!LO:TX:t=P:diminuendolike accent:problem	!	!
8G'>L 8E-	.	(>16gg^<LL	.	.
.	.	16eee-	.	.
(>8e-	.	16fff	.	.
.	.	16eee-J	.	.
8B-J)	.	8bbb-'J)	.	.
*ped	*	*	*	*
!	!	!LO:TX:t=P:diminuendolike accent:problem	!	!
8AA'>L	.	(>16gg^<LL	.	.
.	.	16ccc#X	.	.
(>8en	.	16ddd	.	.
.	.	16ccc#J	.	.
*Xped	*	*	*	*
!	!	!LO:TX:t=piu	!	!
8AJ)	.	8aaa'J)	.	.
!!LO:LB:g=original
=204	=204	=204	=204	=204
*ped	*	*	*	*
!	!	!LO:TX:t=P:diminuendolike accent:problem	!	!
8D'>L	.	(>16ff#X^<LL	.	.
.	.	16cccn	.	.
(>8f#X	.	16ddd	.	.
.	.	16cccJ	.	.
*Xped	*	*	*	*
8AJ)	.	8aaaJ)	.	.
*ped	*	*	*	*
!	!	!LO:TX:t=P:diminuendolike accent:problem	!	!
8E-'>L	.	(>16gg^<LL	.	.
.	.	16ccc	.	.
(>8g	.	16ddd	.	.
.	.	16cccJ	.	.
*Xped	*	*	*	*
8cJ)	.	8ggg'J)	.	.
=205	=205	=205	=205	=205
*^	*	*^	*	*
!	!	!	!	!LO:TX:t=P:diminuendolike accent:problem	!	!
4.F/	8FL	.	(>4ggg	16eee-^<LL	.	.
!	!	!	!	!LO:TX:t=animato	!	!
.	.	.	.	16fff	.	.
.	8f\	.	.	16ddd	.	.
.	.	.	.	16eee-J	.	.
.	8e-J 8c	.	8aaa)	8cccJ	.	.
!	!	!	!	!LO:TX:t=P:diminuendolike accent:problem	!	!
4.F/	8FL	.	(>4fff	16ddd^LL	.	.
.	.	.	.	16eee-	.	.
.	8f\	.	.	16ccc	.	.
.	.	.	.	16dddJ	.	.
.	8dJ 8B-	.	8bbb-)	8bb-J	.	.
=206	=206	=206	=206	=206	=206	=206
!	!	!	!	!LO:TX:t=P:diminuendolike accent:problem	!	!
!	!	!	!	!LO:TX:t=e	!	!
4.F/	8FL	.	4cccc	16aaa^<LL	.	.
.	.	.	.	(>16bbb-	.	.
.	8f\	.	.	16ggg	.	.
.	.	.	.	16aaaJ)	.	.
.	8e-J 8c	.	8dddd	8fffJ	.	.
!	!	!	!	!LO:TX:t=e	!	!
8d 8B-\	4.rfyy	.	(>16dddLL	4.raaaayy	.	.
.	.	.	16bbb-	.	.	.
8r	.	.	16cccc	.	.	.
.	.	.	16bbb-J	.	.	.
!LO:TX:t=P:cross-measure beam:problem	!	!	!	!	!	!
8en^> 8d-X 8B- 8G\	.	.	8eeeenJ) 8eeen	.	.	.
*v	*v	*	*	*	*	*
*	*	*v	*v	*	*
=207	=207	=207	=207	=207
8f 8d 8B- 8F	.	16ffffLL 16fff	.	<
.	.	(>16bbb-	.	.
8r	.	16cccc	.	.
.	.	16bbb-J)	.	.
8enL 8d-X 8B- 8G	.	8eeeenJ 8eeen	.	.
8fJ 8d- 8B- 8F	.	16ffffLL 16fff	.	.
.	.	(>16bbb-	.	.
8r	.	16cccc	.	.
.	.	16bbb-J)	.	.
!LO:TX:t=P:cross-measure beam:problem	!	!	!	!
(>8e^> 8d-X 8B- 8G	.	8eeee^<J 8eee	.	.
=208	=208	=208	=208	=208
8f 8d 8B- 8F)	.	16ffffLL 16fff	.	.
.	.	16bbb-	.	.
8r	.	16cccc	.	.
.	.	16bbb-J	.	.
(>8enL 8d-X 8B- 8Gn	.	8eeeenJ 8eeen	.	.
8fJ 8d- 8B- 8F)	.	16ffffLL 16fff	.	.
.	.	(>16bbb-	.	.
8r	.	16cccc	.	.
.	.	16bbb-J)	.	.
8e^ 8d- 8B- 8G-X	.	8eeee^<J 8eee	.	.
*	*	*X8va	*	*
!!LO:LB:g=original
=209	=209	=209	=209	=209
*ped	*	*	*	*
!	!	!LO:TX:a:t=loco	!	!
8GG-X'< 8GGG-X	.	8r	.	.
8r	.	(>16b-LL	.	sf
!	!	!LO:TX:a:t=veloce	!	!
.	.	16cc-X	.	.
8r	.	16b-	.	.
.	.	16aJJ	.	.
4r	.	16b-LL	.	.
.	.	16cc-	.	.
.	.	16dd-X	.	.
.	.	16ee-	.	.
8r	.	16ff-X	.	<
.	.	16gg-XJJ	.	.
*clefG2	*	*	*	*
=210	=210	=210	=210	=210
*	*	*	*	*^
8b- 8f-X 8d-X	.	16aa-XLL	.	.	.
.	.	16bb-	.	.	.
8r	.	16ccc-X	.	.	<
.	.	16ddd-X	.	.	.
8r	.	16eee-	.	.	.
.	.	16fff-XJJ	.	.	.
*	*	*8va	*	*	*
4r	.	16ggg-XLL	.	.	.
.	.	16aaa-	.	.	.
.	.	16bbb-	.	[	.
.	.	16cccc-	.	.	.
8r	.	16dddd-	.	.	.
.	.	16eeee-JJ)	.	.	.
*	*	*	*	*v	*v
=211	=211	=211	=211	=211
8ff#X'>L	.	(>16eeeenLL	.	.
.	.	16fff#XJJ)	.	.
8bbn'>	.	(>16dddd#XLL 16aaan	.	.
.	.	16fff#JJ)	.	.
8een'>J	.	(>16ddddnLL 16ggg#X	.	.
.	.	16eeenJJ)	.	.
8a'>L	.	(>16cccc#XLL 16gggn	.	.
.	.	16eeenJJ)	.	.
8dd'>	.	(>16ccccnLL 16fff#X	.	.
.	.	16dddJJ)	.	.
8gg'>J	.	(>16bbb-LL 16fffn	.	.
.	.	16dddJJ)	.	.
=212	=212	=212	=212	=212
8cc'<L	.	(>16bbb-XLL 16eeen	.	>
.	.	16cccJJ)	.	.
8f'<	.	(>16aaaLL 16eee-X	.	.
.	.	16cccJJ)	.	.
8b-'<J	.	(>16aaa-XLL 16ddd	.	.
.	.	16bb-JJ)	.	.
8ee-'<L	.	(>16gggLL 16ccc#X	.	.
.	.	16bb-JJ)	.	.
8a-X'<	.	(>16ggg-XLL 16cccn	.	.
.	.	16aa-XJJ)	.	.
8d-X'<J	.	(>16fffLL 16ccc-X	.	.
.	.	16aa-JJ)	.	.
*	*	*X8va	*	*
!!LO:LB:g=original
=213	=213	=213	=213	=213
!	!	!LO:TX:a:t=loco	!	!
8f#X'<L	.	(16eeenLL 16aa#X	.	.
.	.	16ff#XJJ)	.	.
8bn'<	.	(16ddd#XLL 16aan	.	.
.	.	16ff#JJ)	.	.
8en'<J	.	(>16dddnLL 16gg#X	.	.
.	.	16eenJJ)	.	.
8A'<L	.	(>16ccc#XLL 16ggn	.	.
.	.	16eenJJ)	.	.
8d'><	.	(>16cccnLL 16ff#X	.	.
.	.	16ddJJ)	.	.
8g'<J	.	(>16bbnLL 16ffn	.	.
!	!	!LO:TX:t=riten	!	!
.	.	16ddJJ)	.	.
*clefF4	*	*	*	*
=214	=214	=214	=214	=214
(>8cL	.	(>16bb-XLL 16een	.	.
.	.	16ccJJ)	.	.
8F	.	(>16aaLL 16ee-X	.	.
.	.	16ccJJ)	.	.
8B-	.	(>16aa-XLL 16dd	.	.
.	.	16b-JJ)	.	.
8en	.	(>16ggLL 16cc#X	.	.
.	.	16b-JJ)	.	.
8fJ)	.	8ff'>L 8dd	.	.
8F'< 8FF	.	8aan'>J 8ff 8ee- 8ccn	.	f
=215	=215	=215	=215	=215
8BB-'> 8BBB-\	.	8bb-' 8dd 8b-	.	.
8rEE	.	(>16D<LL	.	.
.	.	16F<	.	.
8rEE	.	16B-<	.	.
.	.	16d<JJ	.	.
8B-L 8F 8D 8BB-	.	16fLL	.	.
.	.	16dd	.	.
8B- 8F 8D 8BB-	.	16b-	.	.
.	.	16f	.	.
8B-J 8G-X 8E- 8BB-	.	16g-X	.	.
.	.	16b-JJ)	.	.
=216	=216	=216	=216	=216
8B-'> 8F 8D 8BB-	.	8f'<	.	<
4r	.	(<16dLL	.	.
.	.	16f	.	.
.	.	16b-	.	.
.	.	16ddJJ)	.	.
*clefG2	*	*	*	*
8b-L 8f 8d 8B-	.	(>16ffLL	.	.
.	.	16ddd	.	.
8b- 8f 8d 8B-	.	16bb-	.	.
.	.	16ff	.	.
8b-J 8g-X 8e- 8B-	.	16gg-X	.	.
.	.	16bb-JJ)	.	.
!!LO:LB:g=original
=217	=217	=217	=217	=217
8b- 8f 8d 8B-	.	8ff)	.	.
4r	.	(>16ddLL	.	ff
.	.	16ff	.	.
.	.	16bb-	.	.
.	.	16dddJJ	.	.
*	*	*8va	*	*
!	!	!LO:TX:t=P:diminuendolike accent:problem	!	!
8bb-L 8ff 8dd 8b-	.	16fff^<LL	.	.
.	.	16dddd	.	.
8r	.	16bbb-	.	.
.	.	16fff	.	.
8bb-'J 8gg-X 8ee- 8b-	.	16ggg-X	.	.
.	.	16bbb-JJ	.	.
=218	=218	=218	=218	=218
!	!	!LO:TX:t=P:diminuendolike accent:problem	!	!
8bb-L 8ff 8dd 8b-	.	16fff^<LL	.	.
.	.	16dddd	.	.
8r	.	16bbb-	.	.
.	.	16fff	.	.
8bb-'J 8gg-X 8ee- 8b-	.	16ggg-X	.	.
.	.	16bbb-JJ	.	.
!	!	!LO:TX:t=P:diminuendolike accent:problem	!	!
8bb-L 8ff 8dd 8b-	.	16fff^<LL	.	.
.	.	16ffff	.	.
8r	.	16dddd	.	.
.	.	16bbb-	.	.
8bb-'J 8gg- 8ee- 8b-	.	16ggg-	.	.
.	.	16bbb-JJ)	.	.
=219	=219	=219	=219	=219
!	!	!LO:TX:t=P:diminuendolike accent:problem	!	!
8bb- 8ff 8dd 8b-	.	(>16fff^<LL	.	.
.	.	16bbb-	.	.
8r	.	16fff	.	.
.	.	16dddd	.	.
16r	.	16bbb-	.	.
(<16cc#XKL 16c#X	.	16ccc#XJJ)	.	.
!	!	!LO:TX:t=P:diminuendolike accent:problem	!	!
8ddJ 8d)	.	(>16ddd^<LL	.	.
.	.	16fff	.	.
8r	.	16ddd	.	.
.	.	16bbb-	.	.
16r	.	16fff	.	.
!LO:TX:t=P:cross-measure beam:problem	!	!	!	!
(<16a 16A	.	16aaJJ)	.	.
*	*	*X8va	*	*
=220	=220	=220	=220	=220
!	!	!LO:TX:a:t=loco	!	!
!	!	!LO:TX:t=P:diminuendolike accent:problem	!	!
8b- 8B-)	.	(>16bb-^<LL	.	.
.	.	16ddd	.	.
8r	.	16bb-	.	.
.	.	16fff	.	.
*clefF4	*	*	*	*
16r	.	16ddd	.	.
(>16enKL 16En	.	16eenJJ)	.	.
!	!	!LO:TX:t=P:diminuendolike accent:problem	!	!
8fJ 8F)	.	(>16ff^<LL	.	.
.	.	16bb-	.	.
8r	.	16ff	.	.
.	.	16ddd	.	.
16r	.	16bb-	.	.
(>16c#X 16C#X	.	16cc#XJJ)	.	.
!!LO:LB:g=original
=221	=221	=221	=221	=221
!LO:TX:t=P:brak zakończenia łuku:problem	!	!LO:TX:t=P:diminuendolike accent:problem	!	!
8d 8D)	.	(>16dd^<LL	.	.
.	.	16ff	.	.
8r	.	16dd	.	.
.	.	16bb-	.	.
16r	.	16ff	.	.
(>16AKL 16AA	.	16aJJ)	.	.
!	!	!LO:TX:t=P:diminuendolike accent:problem	!	!
8B-J 8BB-)	.	(>16b-^<LL	.	.
.	.	16dd	.	.
8r	.	16b-	.	.
.	.	16ff	.	.
16r	.	16dd	.	.
!LO:TX:t=P:cross-measure beam:problem	!	!	!	!
(<16En 16EEn	.	16enJJ)	.	.
=222	=222	=222	=222	=222
!	!	!LO:TX:t=P:diminuendolike accent:problem	!	!
8F 8FF)	.	(<16f^<LL	.	.
.	.	16b-	.	.
8r	.	16f	.	.
.	.	16dd	.	.
16r	.	16b-	.	.
(<16C#XKL 16CC#X	.	16c#XJJ)	.	.
!	!	!LO:TX:t=P:diminuendolike accent:problem	!	!
8DJ 8DD)	.	(<16d^<LL	.	.
.	.	16f	.	.
8r	.	16d	.	.
.	.	16b-	.	.
16r	.	16f	.	.
!LO:TX:t=P:cross-measure beam:problem	!	!	!	!
(>16AA\ 16AAA\	.	16A<JJ)	.	.
=223	=223	=223	=223	=223
8BB-\ 8BBB-\)	.	8B-<	.	.
*ped	*	*	*	*
8rGG	.	(<16F<LL	2	.
.	.	16d<	5	.
8rGG	.	16B-<	4	.
.	.	16dJJ)	1	.
4rGG	.	(>16fLL	.	.
.	.	16b-	.	.
.	.	16dd	.	.
.	.	16ff	.	.
8r	.	16bb-	.	.
.	.	16dddJJ	.	.
*clefG2	*	*	*	*
=224	=224	=224	=224	=224
*	*	*8va	*	*
4r	.	8bbb-)	.	ff
.	.	8r	.	.
8r	.	8r	.	.
*	*	*X8va	*	*
!	!	!LO:TX:a:t=loco	!	!
4b- 4f 4B-	.	4ddd 4bb- 4ff 4dd	.	.
8r	.	8r	.	.
=225	=225	=225	=225	=225
*clefF4	*	*	*	*
!LO:TX:B:b:t=Fine.	!	!	!	!
2.BB-\ 2.BBB-\	.	2.B-<;>	.	.
!!LO:PB:g=original
==	==	==	==	==
*-	*-	*-	*-	*-
!!title: @{OTL}; @{OPS} @{ONM} publisher: @{PPR}
!!!RDF**kern: > = above
!!!RDF**kern: < = below
!!!RDF**kern: N = linked
!!!RDF**dynam: < = "cresc", fontstyle= "normal"
!!!RDF**dynam: > = "dim", fontstyle= "normal"
!!!ENC: Jędrzej Mróz
!!!END: 2019-08-29
!!!EED: Wojciech Jakubiak-Danek
!!!EST: 2019-12-02
!!!rism-genre: Variation
!!!rism-key: B-flat major
!!!rism-opus: op. 12
!!!rism-title: Ludovic in B-flat major op. 12
!!!rism-permalink: https://opac.rism.info/search?id=300605013&View=rism
